WanderingClouds/Assets/WanderingCloud/GameArt/DraftClement/Frame_modif.CUBE
#Created by: Adobe Photoshop Export Color Lookup Plugin
TITLE "Frame.exr"
#LUT size
LUT_3D_SIZE 8
#data domain
#LUT data points
DOMAIN_MIN 0.000000 0.000000 0.000000
DOMAIN_MAX 0.903226 0.903226 0.903226
0.000000 0.000000 0.000000
0.000000 0.000000 0.000000
0.000000 0.000000 0.000000
0.026592 0.000000 0.000000
0.171017 0.000000 0.000000
0.300917 0.000000 0.000000
0.415807 0.000000 0.000000
0.522958 0.000000 0.000000
0.000000 0.000000 0.000000
0.000000 0.000000 0.000000
0.000000 0.000000 0.000000
0.047430 0.000000 0.000000
0.204508 0.000000 0.000000
0.338469 0.000000 0.000000
0.456397 0.000000 0.000000
0.564907 0.000000 0.000000
0.000000 0.000000 0.000000
0.000000 0.000000 0.000000
0.000000 0.000000 0.000000
0.169551 0.000000 0.000000
0.333328 0.000000 0.000000
0.451584 0.000000 0.000000
0.566305 0.013429 0.000000
0.661148 0.034222 0.000000
0.000000 0.083944 0.000000
0.000000 0.099399 0.000000
0.000000 0.161788 0.000000
0.333645 0.204248 0.000000
0.637977 0.182514 0.000000
0.770492 0.175262 0.000000
0.867273 0.188034 0.000000
0.941159 0.202600 0.000000
0.000000 0.266019 0.000000
0.000000 0.298562 0.000000
0.000000 0.423430 0.000000
0.370046 0.535579 0.000000
0.790573 0.566795 0.000000
0.983725 0.554540 0.000000
1.000000 0.529727 0.000000
1.000000 0.521380 0.000000
0.000000 0.435475 0.000000
0.000000 0.487853 0.000000
0.000000 0.638048 0.000000
0.373253 0.754496 0.000000
0.814538 0.805538 0.000000
1.000000 0.805018 0.000000
1.000000 0.804056 0.000000
1.000000 0.805616 0.000000
0.000000 0.605137 0.000000
0.000000 0.672657 0.000000
0.000000 0.801493 0.000000
0.380524 0.899319 0.000000
0.813952 0.945992 0.000000
1.000000 0.957016 0.000000
1.000000 0.962155 0.000000
1.000000 0.962638 0.000000
0.000000 0.754383 0.000000
0.000000 0.827169 0.000000
0.000000 0.933924 0.000000
0.389528 1.000000 0.000000
0.809272 1.000000 0.000000
1.000000 1.000000 0.000000
1.000000 1.000000 0.000000
1.000000 1.000000 0.000000
0.000000 0.000000 0.000000
0.000000 0.000000 0.000000
0.000000 0.000000 0.000000
0.032266 0.000000 0.000000
0.179669 0.000000 0.000000
0.310801 0.000000 0.000000
0.426917 0.000000 0.000000
0.534614 0.000000 0.000000
0.000000 0.000000 0.000000
0.000000 0.000000 0.000000
0.000000 0.000000 0.000000
0.070232 0.000000 0.000000
0.236832 0.000000 0.000000
0.377409 0.000000 0.000000
0.500656 0.000000 0.007004
0.608092 0.000000 0.023377
0.000000 0.000000 0.000000
0.000000 0.000000 0.000000
0.000000 0.000000 0.000000
0.161722 0.000000 0.000000
0.326900 0.000082 0.000000
0.467693 0.019494 0.002155
0.595582 0.040379 0.021376
0.698841 0.060975 0.038492
0.000000 0.094242 0.000000
0.000000 0.104836 0.000000
0.000000 0.173218 0.000000
0.341072 0.219338 0.000000
0.636745 0.198491 0.000000
0.769750 0.197771 0.000000
0.866928 0.215404 0.000000
0.938317 0.233272 0.000000
0.000000 0.283036 0.000000
0.000000 0.309061 0.000000
0.000000 0.441739 0.000000
0.373195 0.557859 0.000000
0.799933 0.590482 0.000000
0.982245 0.573376 0.000000
1.000000 0.556042 0.000000
1.000000 0.552875 0.000000
0.000000 0.455150 0.000000
0.000000 0.498283 0.000000
0.000000 0.652259 0.000000
0.371530 0.770598 0.000000
0.819656 0.822192 0.000000
1.000000 0.824628 0.000000
1.000000 0.831237 0.000000
1.000000 0.832355 0.000000
0.000000 0.627107 0.000000
0.000000 0.684586 0.000000
0.000000 0.817127 0.000000
0.369543 0.916173 0.000000
0.812104 0.961966 0.000000
1.000000 0.974886 0.000000
1.000000 0.984711 0.000000
1.000000 0.984812 0.000000
0.000000 0.776831 0.000000
0.000000 0.840802 0.000000
0.000000 0.954440 0.000000
0.370316 1.000000 0.000000
0.801219 1.000000 0.000000
1.000000 1.000000 0.000000
1.000000 1.000000 0.000000
1.000000 1.000000 0.000000
0.000000 0.000000 0.032092
0.000000 0.000000 0.029476
0.000000 0.000000 0.015540
0.109632 0.000000 0.000000
0.248232 0.000000 0.013849
0.363221 0.000000 0.038851
0.466399 0.000000 0.065388
0.559335 0.000000 0.091092
0.000000 0.000000 0.054833
0.000000 0.000000 0.031459
0.000000 0.000000 0.019731
0.116790 0.000000 0.017262
0.263515 0.000000 0.054588
0.391865 0.000000 0.086231
0.516587 0.000000 0.110819
0.623394 0.000000 0.133572
0.000000 0.000000 0.122107
0.000000 0.000000 0.093564
0.000000 0.000000 0.036787
0.160527 0.015054 0.093464
0.378339 0.046388 0.136772
0.545811 0.065365 0.165424
0.670573 0.090134 0.193087
0.770092 0.113515 0.219046
0.000000 0.222016 0.094031
0.000000 0.192301 0.062654
0.000000 0.190239 0.040496
0.318536 0.239435 0.013773
0.606581 0.232572 0.043679
0.749212 0.246686 0.077274
0.845635 0.273732 0.109451
0.918034 0.300410 0.138849
0.000000 0.439568 0.059502
0.000000 0.411122 0.043344
0.000000 0.469330 0.031854
0.333756 0.594706 0.000000
0.785922 0.638692 0.000000
0.974608 0.622379 0.000000
1.000000 0.605864 0.000000
1.000000 0.606299 0.000000
0.000000 0.622375 0.061576
0.000000 0.603428 0.052447
0.000000 0.677988 0.043080
0.320591 0.801605 0.000000
0.793140 0.859837 0.000000
1.000000 0.865638 0.000000
1.000000 0.871384 0.000000
1.000000 0.871862 0.000000
0.000000 0.786981 0.093658
0.000000 0.784719 0.088604
0.000000 0.838018 0.087091
0.306245 0.935363 0.050938
0.768768 0.985084 0.020958
0.995595 1.000000 0.002896
1.000000 1.000000 0.000000
1.000000 1.000000 0.000000
0.000000 0.921535 0.118966
0.000000 0.931997 0.118068
0.000000 0.971725 0.122366
0.302542 1.000000 0.091695
0.749100 1.000000 0.073562
0.978758 1.000000 0.063305
1.000000 1.000000 0.063504
1.000000 1.000000 0.064547
0.000000 0.000000 0.282054
0.000000 0.000000 0.291832
0.000000 0.000000 0.274549
0.170270 0.000000 0.262674
0.417680 0.000000 0.237172
0.562263 0.000000 0.223163
0.672347 0.000000 0.230868
0.755976 0.000000 0.242830
0.000000 0.000000 0.311698
0.000000 0.000000 0.298224
0.000000 0.000000 0.302107
0.205662 0.000000 0.283944
0.446402 0.000000 0.254649
0.591429 0.000000 0.253648
0.696467 0.000000 0.269266
0.781312 0.000000 0.287470
0.000000 0.000000 0.443598
0.000000 0.000000 0.404806
0.000000 0.000000 0.358154
0.253617 0.000000 0.328035
0.481034 0.014909 0.324105
0.629468 0.043454 0.354119
0.727682 0.083591 0.394336
0.807415 0.122364 0.434775
0.000000 0.243846 0.561604
0.000000 0.236052 0.534911
0.000000 0.326688 0.516387
0.278271 0.249007 0.362113
0.553500 0.320505 0.456733
0.724916 0.361345 0.499915
0.836207 0.400613 0.533937
0.916693 0.434190 0.560882
0.000000 0.605583 0.561813
0.000000 0.608560 0.529029
0.000000 0.699938 0.463811
0.270956 0.607359 0.362291
0.734426 0.649288 0.350138
0.895547 0.629566 0.391207
0.978434 0.639228 0.439900
1.000000 0.652582 0.469522
0.000000 0.824089 0.545320
0.000000 0.813035 0.499944
0.000000 0.872479 0.439227
0.252529 0.811962 0.372430
0.732694 0.864213 0.363517
0.961247 0.872216 0.351439
1.000000 0.865060 0.353482
1.000000 0.857794 0.376913
0.000000 0.957367 0.540800
0.000000 0.960910 0.506005
0.000000 1.000000 0.455079
0.244917 0.943319 0.404979
0.714480 0.990160 0.399343
0.954028 1.000000 0.393793
1.000000 1.000000 0.387498
1.000000 1.000000 0.384691
0.000000 1.000000 0.531723
0.000000 1.000000 0.505127
0.000000 1.000000 0.464051
0.248720 1.000000 0.427406
0.700034 1.000000 0.423882
0.941087 1.000000 0.419887
1.000000 1.000000 0.419117
1.000000 1.000000 0.418735
0.000000 0.000000 0.549026
0.000000 0.000000 0.561632
0.000000 0.000000 0.573383
0.159557 0.000000 0.525280
0.461045 0.000000 0.532295
0.695805 0.000000 0.522494
0.816778 0.000000 0.503817
0.895797 0.000000 0.490602
0.000000 0.000000 0.590948
0.000000 0.000000 0.579174
0.000000 0.000000 0.612026
0.197064 0.000000 0.563007
0.525869 0.000000 0.567635
0.750239 0.000000 0.557783
0.846910 0.000000 0.536884
0.924710 0.000000 0.530987
0.000000 0.000000 0.711620
0.000000 0.000000 0.680082
0.000000 0.000000 0.668412
0.247097 0.000000 0.639475
0.620712 0.000000 0.629333
0.793407 0.000000 0.605844
0.882234 0.000000 0.602671
0.952302 0.032019 0.612049
0.000000 0.182708 0.842443
0.000000 0.174055 0.818890
0.000000 0.256023 0.827730
0.228491 0.227633 0.692275
0.648041 0.278513 0.662637
0.788113 0.343286 0.678776
0.876133 0.407800 0.710754
0.939644 0.465610 0.741338
0.000000 0.581434 0.893075
0.000000 0.590001 0.878571
0.000000 0.742401 0.881593
0.169383 0.723579 0.740332
0.697142 0.651924 0.684223
0.841400 0.679266 0.746774
0.933355 0.719328 0.782841
0.991190 0.741233 0.798295
0.000000 0.843493 0.904549
0.000000 0.857307 0.887245
0.000000 0.966935 0.865806
0.158079 0.908312 0.707713
0.691130 0.865917 0.688945
0.932455 0.875926 0.684960
1.000000 0.862429 0.711382
1.000000 0.863991 0.733103
0.000000 1.000000 0.896077
0.000000 1.000000 0.880762
0.000000 1.000000 0.854295
0.163361 1.000000 0.706979
0.675681 0.990521 0.699191
0.925245 1.000000 0.699109
1.000000 1.000000 0.695264
1.000000 1.000000 0.691160
0.000000 1.000000 0.883699
0.000000 1.000000 0.869246
0.000000 1.000000 0.824786
0.184014 1.000000 0.706135
0.664093 1.000000 0.704084
0.914978 1.000000 0.704769
1.000000 1.000000 0.704455
1.000000 1.000000 0.703680
0.000000 0.000000 0.741201
0.000000 0.000000 0.751866
0.000000 0.000000 0.777803
0.159051 0.000000 0.737056
0.462738 0.000000 0.728586
0.705253 0.000000 0.728698
0.861154 0.000000 0.725721
0.976619 0.000000 0.722013
0.000000 0.000000 0.782320
0.000000 0.000000 0.774289
0.000000 0.000000 0.814843
0.198890 0.000000 0.777476
0.533275 0.000000 0.766757
0.763149 0.000000 0.764484
0.911216 0.000000 0.763015
1.000000 0.000000 0.760941
0.000000 0.000000 0.874959
0.000000 0.000000 0.849510
0.000000 0.000000 0.854686
0.231147 0.000000 0.843110
0.620648 0.000000 0.819227
0.843378 0.000000 0.815844
0.979872 0.000000 0.812262
1.000000 0.000000 0.797183
0.000000 0.140864 0.985707
0.000000 0.135775 0.967975
0.000000 0.210216 0.978762
0.189719 0.204467 0.881680
0.665639 0.257741 0.854590
0.890409 0.248083 0.849464
0.975044 0.301517 0.835961
1.000000 0.352602 0.839314
0.000000 0.521483 1.000000
0.000000 0.529222 1.000000
0.000000 0.681612 1.000000
0.123013 0.696522 0.962614
0.668574 0.634294 0.873451
0.867082 0.692900 0.867744
0.953439 0.748428 0.894525
1.000000 0.771131 0.908751
0.000000 0.802026 1.000000
0.000000 0.822944 1.000000
0.000000 0.958369 1.000000
0.094932 0.976544 0.962801
0.651097 0.882259 0.866687
0.912073 0.870048 0.865673
0.995815 0.880404 0.901255
1.000000 0.896268 0.919043
0.000000 1.000000 1.000000
0.000000 1.000000 1.000000
0.000000 1.000000 1.000000
0.078478 1.000000 0.936935
0.651359 0.995041 0.865670
0.907602 1.000000 0.864628
1.000000 1.000000 0.862114
1.000000 0.993116 0.871676
0.000000 1.000000 1.000000
0.000000 1.000000 1.000000
0.000000 1.000000 1.000000
0.101316 1.000000 0.902908
0.647062 1.000000 0.864397
0.898078 1.000000 0.862056
1.000000 1.000000 0.862667
1.000000 1.000000 0.861697
0.000000 0.000000 0.883958
0.000000 0.000000 0.895094
0.000000 0.000000 0.922541
0.175554 0.000000 0.889602
0.491051 0.000000 0.867239
0.737391 0.000000 0.873042
0.891551 0.000000 0.872741
1.000000 0.000000 0.869916
0.000000 0.000000 0.921343
0.000000 0.000000 0.916425
0.000000 0.000000 0.949712
0.212908 0.000000 0.925973
0.559901 0.000000 0.901035
0.795538 0.000000 0.905679
0.942113 0.000000 0.904978
1.000000 0.000000 0.903066
0.000000 0.000000 0.989933
0.000000 0.000000 0.971190
0.000000 0.000000 0.980729
0.210119 0.000000 0.974169
0.617063 0.000000 0.935360
0.852086 0.000000 0.939640
0.988441 0.000000 0.936478
1.000000 0.000000 0.933466
0.000000 0.122691 1.000000
0.000000 0.121620 1.000000
0.000000 0.194786 1.000000
0.164809 0.198851 0.996732
0.656799 0.244920 0.975316
0.890979 0.261591 0.965237
1.000000 0.264135 0.960277
1.000000 0.291074 0.950529
0.000000 0.464597 1.000000
0.000000 0.475266 1.000000
0.000000 0.631147 1.000000
0.102109 0.648351 1.000000
0.631717 0.607350 0.988580
0.907356 0.645813 0.973165
1.000000 0.670382 0.963393
1.000000 0.709465 0.964503
0.000000 0.761537 1.000000
0.000000 0.785593 1.000000
0.000000 0.921463 1.000000
0.070526 0.957974 1.000000
0.596526 0.897493 1.000000
0.904630 0.865927 0.970953
0.996955 0.906258 0.985939
1.000000 0.921599 0.996354
0.000000 0.968909 1.000000
0.000000 1.000000 1.000000
0.000000 1.000000 1.000000
0.065439 1.000000 1.000000
0.563935 1.000000 0.998768
0.895183 0.993352 0.967065
1.000000 0.992796 0.968738
1.000000 0.993071 0.985270
0.000000 1.000000 1.000000
0.000000 1.000000 1.000000
0.000000 1.000000 1.000000
0.057342 1.000000 1.000000
0.569418 1.000000 0.974602
0.886014 1.000000 0.963101
1.000000 1.000000 0.963687
1.000000 1.000000 0.962874
0.000000 0.000000 0.997100
0.000000 0.000000 1.000000
0.000000 0.000000 1.000000
0.196281 0.000000 1.000000
0.527554 0.000000 0.976825
0.768527 0.000000 0.981632
0.926932 0.000000 0.987293
1.000000 0.000000 0.985985
0.000000 0.000000 1.000000
0.000000 0.000000 1.000000
0.000000 0.000000 1.000000
0.211995 0.000000 1.000000
0.586193 0.000000 1.000000
0.823166 0.000000 1.000000
0.971907 0.000000 1.000000
1.000000 0.000000 1.000000
0.000000 0.000000 1.000000
0.000000 0.000000 1.000000
0.000000 0.000000 1.000000
0.187160 0.000000 1.000000
0.624216 0.000000 1.000000
0.853137 0.000000 1.000000
0.997207 0.005350 1.000000
1.000000 0.011130 1.000000
0.000000 0.112751 1.000000
0.000000 0.115891 1.000000
0.000000 0.190471 1.000000
0.146253 0.201222 1.000000
0.640881 0.236849 1.000000
0.885196 0.273696 1.000000
1.000000 0.283118 1.000000
1.000000 0.288166 1.000000
0.000000 0.422400 1.000000
0.000000 0.438441 1.000000
0.000000 0.591541 1.000000
0.090746 0.617296 1.000000
0.602557 0.586734 1.000000
0.900997 0.631835 1.000000
1.000000 0.645509 1.000000
1.000000 0.645490 1.000000
0.000000 0.722533 1.000000
0.000000 0.749679 1.000000
0.000000 0.889683 1.000000
0.045546 0.924472 1.000000
0.570522 0.860744 1.000000
0.886138 0.840917 1.000000
1.000000 0.859943 1.000000
1.000000 0.877626 1.000000
0.000000 0.938109 1.000000
0.000000 0.976765 1.000000
0.000000 1.000000 1.000000
0.050308 1.000000 1.000000
0.542076 1.000000 1.000000
0.862896 1.000000 1.000000
1.000000 0.997018 1.000000
1.000000 1.000000 1.000000
0.000000 1.000000 1.000000
0.000000 1.000000 1.000000
0.000000 1.000000 1.000000
0.054615 1.000000 1.000000
0.508526 1.000000 1.000000
0.849598 1.000000 1.000000
1.000000 1.000000 1.000000
1.000000 1.000000 1.000000
