WanderingClouds/Assets/WanderingCloud/GameArt/DraftClement/Frame_modif.CUBE
#Created by: Adobe Photoshop Export Color Lookup Plugin
TITLE "Frame.exr"
#LUT size
LUT_3D_SIZE 32
#data domain
DOMAIN_MIN 0.0 0.0 0.0
DOMAIN_MAX 1.0 1.0 1.0
#LUT data points
0.000000 0.000000 0.000000
0.000000 0.000000 0.000000
0.000000 0.000000 0.000000
0.000000 0.000000 0.000000
0.000000 0.000000 0.000000
0.000000 0.000000 0.000000
0.000000 0.000000 0.000000
0.000000 0.000000 0.000000
0.000000 0.000000 0.000000
0.000000 0.000000 0.000000
0.000000 0.000000 0.000000
0.000000 0.000000 0.000000
0.026592 0.000000 0.000000
0.061928 0.000000 0.000000
0.098447 0.000000 0.000000
0.135200 0.000000 0.000000
0.171017 0.000000 0.000000
0.205595 0.000000 0.000000
0.238553 0.000000 0.000000
0.270482 0.000000 0.000000
0.300917 0.000000 0.000000
0.330955 0.000000 0.000000
0.359629 0.000000 0.000000
0.388218 0.000000 0.000000
0.415807 0.000000 0.000000
0.443667 0.000000 0.000000
0.470587 0.000000 0.000000
0.497959 0.000000 0.000000
0.522958 0.000000 0.000000
0.547374 0.000000 0.000000
0.570957 0.000000 0.000000
0.594219 0.000000 0.000000
0.000000 0.000000 0.000000
0.000000 0.000000 0.000000
0.000000 0.000000 0.000000
0.000000 0.000000 0.000000
0.000000 0.000000 0.000000
0.000000 0.000000 0.000000
0.000000 0.000000 0.000000
0.000000 0.000000 0.000000
0.000000 0.000000 0.000000
0.000000 0.000000 0.000000
0.000000 0.000000 0.000000
0.000000 0.000000 0.000000
0.028413 0.000000 0.000000
0.064133 0.000000 0.000000
0.100887 0.000000 0.000000
0.137870 0.000000 0.000000
0.173894 0.000000 0.000000
0.208631 0.000000 0.000000
0.241648 0.000000 0.000000
0.273658 0.000000 0.000000
0.304047 0.000000 0.000000
0.334084 0.000000 0.000000
0.362740 0.000000 0.000000
0.391385 0.000000 0.000000
0.419073 0.000000 0.000000
0.447035 0.000000 0.000000
0.473896 0.000000 0.000000
0.501327 0.000000 0.000000
0.526455 0.000000 0.000000
0.550855 0.000000 0.000000
0.574212 0.000000 0.000000
0.597456 0.000000 0.000000
0.000000 0.000000 0.000000
0.000000 0.000000 0.000000
0.000000 0.000000 0.000000
0.000000 0.000000 0.000000
0.000000 0.000000 0.000000
0.000000 0.000000 0.000000
0.000000 0.000000 0.000000
0.000000 0.000000 0.000000
0.000000 0.000000 0.000000
0.000000 0.000000 0.000000
0.000000 0.000000 0.000000
0.000000 0.000000 0.000000
0.030618 0.000000 0.000000
0.066663 0.000000 0.000000
0.103866 0.000000 0.000000
0.141149 0.000000 0.000000
0.177432 0.000000 0.000000
0.212361 0.000000 0.000000
0.245554 0.000000 0.000000
0.277631 0.000000 0.000000
0.308116 0.000000 0.000000
0.338087 0.000000 0.000000
0.366771 0.000000 0.000000
0.395438 0.000000 0.000000
0.423179 0.000000 0.000000
0.451249 0.000000 0.000000
0.478256 0.000000 0.000000
0.505599 0.000000 0.000000
0.530667 0.000000 0.000000
0.555181 0.000000 0.000000
0.578535 0.000000 0.000000
0.601536 0.000000 0.000000
0.000000 0.000000 0.000000
0.000000 0.000000 0.000000
0.000000 0.000000 0.000000
0.000000 0.000000 0.000000
0.000000 0.000000 0.000000
0.000000 0.000000 0.000000
0.000000 0.000000 0.000000
0.000000 0.000000 0.000000
0.000000 0.000000 0.000000
0.000000 0.000000 0.000000
0.000000 0.000000 0.000000
0.003633 0.000000 0.000000
0.038978 0.000000 0.000000
0.076877 0.000000 0.000000
0.115134 0.000000 0.000000
0.153621 0.000000 0.000000
0.190676 0.000000 0.000000
0.226326 0.000000 0.000000
0.259743 0.000000 0.000000
0.292057 0.000000 0.000000
0.322829 0.000000 0.000000
0.353175 0.000000 0.000000
0.382155 0.000000 0.000000
0.411210 0.000000 0.000000
0.439298 0.000000 0.000000
0.467814 0.000000 0.000000
0.495312 0.000000 0.000000
0.522779 0.000000 0.000000
0.547462 0.000000 0.000000
0.571741 0.000000 0.000000
0.595061 0.000000 0.000000
0.617875 0.000000 0.000000
0.000000 0.000000 0.000000
0.000000 0.000000 0.000000
0.000000 0.000000 0.000000
0.000000 0.000000 0.000000
0.000000 0.000000 0.000000
0.000000 0.000000 0.000000
0.000000 0.000000 0.000000
0.000000 0.000000 0.000000
0.000000 0.000000 0.000000
0.000000 0.000000 0.000000
0.000000 0.000000 0.000000
0.009690 0.000000 0.000000
0.047430 0.000000 0.000000
0.086645 0.000000 0.000000
0.126767 0.000000 0.000000
0.166343 0.000000 0.000000
0.204508 0.000000 0.000000
0.240867 0.000000 0.000000
0.274929 0.000000 0.000000
0.307416 0.000000 0.000000
0.338469 0.000000 0.000000
0.369127 0.000000 0.000000
0.398498 0.000000 0.000000
0.427833 0.000000 0.000000
0.456397 0.000000 0.000000
0.485292 0.000000 0.000000
0.513148 0.000000 0.000000
0.540419 0.000000 0.000000
0.564907 0.000000 0.000000
0.588812 0.000000 0.000000
0.611906 0.000000 0.000000
0.634698 0.000000 0.000000
0.000000 0.000000 0.000000
0.000000 0.000000 0.000000
0.000000 0.000000 0.000000
0.000000 0.000000 0.000000
0.000000 0.000000 0.000000
0.000000 0.000000 0.000000
0.000000 0.000000 0.000000
0.000000 0.000000 0.000000
0.000000 0.000000 0.000000
0.000000 0.000000 0.000000
0.000000 0.000000 0.000000
0.029575 0.000000 0.000000
0.059153 0.000000 0.000000
0.098599 0.000000 0.000000
0.140032 0.000000 0.000000
0.181232 0.000000 0.000000
0.220291 0.000000 0.000000
0.257391 0.000000 0.000000
0.292035 0.000000 0.000000
0.325049 0.000000 0.000000
0.356791 0.000000 0.000000
0.388104 0.000000 0.000000
0.418118 0.000000 0.000000
0.448117 0.000000 0.000000
0.477427 0.000000 0.000000
0.507026 0.000000 0.000000
0.534876 0.000000 0.000000
0.561938 0.000000 0.000000
0.586309 0.000000 0.000000
0.609992 0.000000 0.000000
0.632841 0.000000 0.000000
0.655380 0.000000 0.000000
0.000000 0.000000 0.000000
0.000000 0.000000 0.000000
0.000000 0.000000 0.000000
0.000000 0.000000 0.000000
0.000000 0.000000 0.000000
0.000000 0.000000 0.000000
0.000000 0.000000 0.000000
0.000000 0.000000 0.000000
0.000000 0.000000 0.000000
0.000000 0.000000 0.000000
0.022189 0.000000 0.000000
0.055257 0.000000 0.000000
0.090927 0.000000 0.000000
0.123246 0.000000 0.000000
0.156093 0.000000 0.000000
0.196206 0.000000 0.000000
0.236953 0.000000 0.000000
0.274893 0.000000 0.000000
0.310317 0.000000 0.000000
0.343901 0.000000 0.000000
0.376182 0.000000 0.000000
0.408197 0.000000 0.000000
0.438856 0.000000 0.000000
0.469555 0.000000 0.000000
0.499552 0.000000 0.000000
0.529321 0.000000 0.000000
0.556885 0.000000 0.000000
0.583766 0.000000 0.000000
0.607904 0.000000 0.000000
0.631468 0.000000 0.000000
0.654061 0.000000 0.000000
0.676352 0.000000 0.000000
0.000000 0.000000 0.000000
0.000000 0.000000 0.000000
0.000000 0.000000 0.000000
0.000000 0.000000 0.000000
0.000000 0.000000 0.000000
0.000000 0.000000 0.000000
0.000000 0.000000 0.000000
0.000000 0.000000 0.000000
0.000000 0.000000 0.000000
0.014751 0.000000 0.000000
0.049352 0.000000 0.000000
0.088776 0.000000 0.000000
0.127668 0.000000 0.000000
0.168713 0.000000 0.000000
0.205258 0.000000 0.000000
0.240350 0.000000 0.000000
0.271830 0.000000 0.000000
0.301740 0.000000 0.000000
0.331241 0.000000 0.000000
0.365936 0.000000 0.000000
0.399001 0.000000 0.000000
0.431769 0.000000 0.000000
0.463121 0.000000 0.000000
0.494505 0.000000 0.000000
0.524841 0.000000 0.000000
0.554256 0.000000 0.000000
0.581337 0.000000 0.000000
0.607827 0.001009 0.000000
0.631656 0.003917 0.000000
0.654944 0.006799 0.000000
0.677239 0.009636 0.000000
0.699229 0.012516 0.000000
0.000000 0.000000 0.000000
0.000000 0.000000 0.000000
0.000000 0.000000 0.000000
0.000000 0.000000 0.000000
0.000000 0.000000 0.000000
0.000000 0.000000 0.000000
0.000000 0.000000 0.000000
0.000000 0.000000 0.000000
0.000000 0.000000 0.000000
0.034573 0.000000 0.000000
0.080026 0.000000 0.000000
0.123276 0.000000 0.000000
0.169551 0.000000 0.000000
0.214051 0.000000 0.000000
0.258274 0.000000 0.000000
0.297099 0.000000 0.000000
0.333328 0.000000 0.000000
0.365131 0.000000 0.000000
0.396643 0.000000 0.000000
0.423617 0.000000 0.000000
0.451584 0.000000 0.000000
0.480760 0.000000 0.000000
0.510106 0.002180 0.000000
0.539173 0.007553 0.000000
0.566305 0.013429 0.000000
0.593225 0.019530 0.000000
0.617222 0.024905 0.000000
0.641244 0.030093 0.000000
0.661148 0.034222 0.000000
0.680470 0.038342 0.000000
0.699990 0.042101 0.000000
0.721660 0.045264 0.000000
0.000000 0.000000 0.000000
0.000000 0.000000 0.000000
0.000000 0.000000 0.000000
0.000000 0.000000 0.000000
0.000000 0.000000 0.000000
0.000000 0.000000 0.000000
0.000000 0.000000 0.000000
0.000000 0.000000 0.000000
0.000000 0.004239 0.000000
0.043715 0.009134 0.000000
0.108666 0.009974 0.000000
0.166639 0.004663 0.000000
0.217159 0.000892 0.000000
0.270398 0.001142 0.000000
0.317753 0.002088 0.000000
0.363295 0.004381 0.000000
0.403679 0.006786 0.000000
0.443472 0.009887 0.000000
0.476277 0.013165 0.000000
0.509562 0.016566 0.000000
0.537625 0.020811 0.000000
0.567658 0.025305 0.000000
0.596099 0.030184 0.000000
0.623933 0.035434 0.000000
0.649292 0.041309 0.000000
0.674525 0.047469 0.000000
0.698241 0.052613 0.000000
0.721250 0.057747 0.000000
0.740261 0.061566 0.000000
0.758740 0.065350 0.000000
0.776551 0.069092 0.000000
0.794093 0.072953 0.000000
0.000000 0.004365 0.000000
0.000000 0.004737 0.000000
0.000000 0.005486 0.000000
0.000000 0.009290 0.000000
0.000000 0.013651 0.000000
0.000000 0.022255 0.000000
0.000000 0.031556 0.000000
0.000000 0.040440 0.000000
0.000000 0.049476 0.000000
0.046518 0.057399 0.000000
0.120303 0.062071 0.000000
0.203334 0.062508 0.000000
0.269735 0.055991 0.000000
0.327491 0.050702 0.000000
0.384922 0.049348 0.000000
0.433224 0.048549 0.000000
0.482082 0.049765 0.000000
0.524029 0.051357 0.000000
0.559406 0.053772 0.000000
0.592782 0.056342 0.000000
0.620827 0.060097 0.000000
0.650023 0.064107 0.000000
0.677488 0.068698 0.000000
0.703867 0.073717 0.000000
0.726708 0.079461 0.000000
0.752048 0.085254 0.000000
0.774629 0.090179 0.000000
0.796536 0.095130 0.000000
0.814792 0.098543 0.000000
0.830868 0.102130 0.000000
0.843358 0.105209 0.000000
0.860153 0.108702 0.000000
0.000000 0.042452 0.000000
0.000000 0.043055 0.000000
0.000000 0.043940 0.000000
0.000000 0.049188 0.000000
0.000000 0.054440 0.000000
0.000000 0.065774 0.000000
0.000000 0.076638 0.000000
0.000000 0.091323 0.000000
0.000000 0.102337 0.000000
0.049453 0.114878 0.000000
0.128242 0.124120 0.000000
0.218953 0.128208 0.000000
0.315036 0.128844 0.000000
0.394752 0.122381 0.000000
0.455631 0.114400 0.000000
0.513832 0.110568 0.000000
0.562711 0.108085 0.000000
0.604575 0.107610 0.000000
0.638823 0.107664 0.000000
0.671425 0.108733 0.000000
0.698439 0.111108 0.000000
0.726724 0.114305 0.000000
0.753036 0.118203 0.000000
0.775592 0.122788 0.000000
0.799738 0.127774 0.000000
0.823578 0.133220 0.000000
0.845027 0.137782 0.000000
0.864678 0.142497 0.000000
0.880403 0.145587 0.000000
0.897244 0.148377 0.000000
0.905173 0.149742 0.000000
0.918043 0.152064 0.000000
0.000000 0.083944 0.000000
0.000000 0.084785 0.000000
0.000000 0.085969 0.000000
0.000000 0.092342 0.000000
0.000000 0.099399 0.000000
0.000000 0.112656 0.000000
0.000000 0.127212 0.000000
0.000000 0.144669 0.000000
0.000000 0.161788 0.000000
0.045747 0.176426 0.000000
0.133322 0.190728 0.000000
0.229787 0.199887 0.000000
0.333645 0.204248 0.000000
0.441766 0.205194 0.000000
0.529930 0.198643 0.000000
0.588288 0.188536 0.000000
0.637977 0.182514 0.000000
0.678760 0.178354 0.000000
0.712769 0.175973 0.000000
0.741907 0.174497 0.000000
0.770492 0.175262 0.000000
0.796710 0.177178 0.000000
0.820161 0.180137 0.000000
0.844471 0.183754 0.000000
0.867273 0.188034 0.000000
0.887986 0.192879 0.000000
0.906964 0.196708 0.000000
0.926649 0.200763 0.000000
0.941159 0.202600 0.000000
0.957313 0.204641 0.000000
0.961993 0.205247 0.000000
0.967902 0.206326 0.000000
0.000000 0.127996 0.000000
0.000000 0.129145 0.000000
0.000000 0.130559 0.000000
0.000000 0.138855 0.000000
0.000000 0.147250 0.000000
0.000000 0.163812 0.000000
0.000000 0.180640 0.000000
0.000000 0.204791 0.000000
0.000000 0.225090 0.000000
0.044916 0.245273 0.000000
0.134624 0.261892 0.000000
0.239459 0.277735 0.000000
0.348556 0.285977 0.000000
0.463821 0.290645 0.000000
0.573323 0.290847 0.000000
0.658001 0.286544 0.000000
0.703785 0.273135 0.000000
0.745830 0.265275 0.000000
0.779971 0.259124 0.000000
0.808152 0.254498 0.000000
0.835959 0.252948 0.000000
0.859444 0.252552 0.000000
0.883479 0.254274 0.000000
0.905109 0.256559 0.000000
0.925350 0.259629 0.000000
0.946367 0.263515 0.000000
0.965203 0.266320 0.000000
0.980851 0.269121 0.000000
0.991919 0.269970 0.000000
1.000000 0.270803 0.000000
1.000000 0.270840 0.000000
1.000000 0.271124 0.000000
0.000000 0.173793 0.000000
0.000000 0.175306 0.000000
0.000000 0.177141 0.000000
0.000000 0.186825 0.000000
0.000000 0.197423 0.000000
0.000000 0.216300 0.000000
0.000000 0.237172 0.000000
0.000000 0.264862 0.000000
0.000000 0.292025 0.000000
0.036982 0.315184 0.000000
0.136243 0.337580 0.000000
0.242080 0.355686 0.000000
0.361380 0.372541 0.000000
0.479895 0.379033 0.000000
0.593184 0.382812 0.000000
0.684973 0.381851 0.000000
0.762349 0.380683 0.000000
0.805003 0.367670 0.000000
0.837740 0.356925 0.000000
0.867485 0.349133 0.000000
0.891807 0.343872 0.000000
0.916986 0.341577 0.000000
0.937111 0.340164 0.000000
0.959030 0.341219 0.000000
0.978838 0.342443 0.000000
0.996141 0.344487 0.000000
1.000000 0.345728 0.000000
1.000000 0.347432 0.000000
1.000000 0.347442 0.000000
1.000000 0.346902 0.000000
1.000000 0.346873 0.000000
1.000000 0.346873 0.000000
0.000000 0.220260 0.000000
0.000000 0.222185 0.000000
0.000000 0.224460 0.000000
0.000000 0.236041 0.000000
0.000000 0.248234 0.000000
0.000000 0.270449 0.000000
0.000000 0.293938 0.000000
0.000000 0.327518 0.000000
0.000000 0.358351 0.000000
0.033311 0.387434 0.000000
0.134947 0.412827 0.000000
0.245292 0.436514 0.000000
0.365974 0.455530 0.000000
0.494482 0.471115 0.000000
0.607525 0.475507 0.000000
0.701033 0.477690 0.000000
0.777768 0.476525 0.000000
0.842077 0.475153 0.000000
0.890150 0.469173 0.000000
0.917105 0.455839 0.000000
0.940740 0.446793 0.000000
0.964570 0.441491 0.000000
0.986205 0.438247 0.000000
1.000000 0.435325 0.000000
1.000000 0.434338 0.000000
1.000000 0.434266 0.000000
1.000000 0.432845 0.000000
1.000000 0.432682 0.000000
1.000000 0.432566 0.000000
1.000000 0.431902 0.000000
1.000000 0.431858 0.000000
1.000000 0.431858 0.000000
0.000000 0.266019 0.000000
0.000000 0.268202 0.000000
0.000000 0.271055 0.000000
0.000000 0.284346 0.000000
0.000000 0.298562 0.000000
0.000000 0.322921 0.000000
0.000000 0.350075 0.000000
0.000000 0.387014 0.000000
0.000000 0.423430 0.000000
0.025688 0.455478 0.000000
0.134451 0.486229 0.000000
0.245337 0.512235 0.000000
0.370046 0.535579 0.000000
0.500745 0.552978 0.000000
0.619680 0.563266 0.000000
0.712682 0.565552 0.000000
0.790573 0.566795 0.000000
0.854432 0.565539 0.000000
0.907153 0.563757 0.000000
0.951377 0.560419 0.000000
0.983725 0.554540 0.000000
1.000000 0.545114 0.000000
1.000000 0.539114 0.000000
1.000000 0.533438 0.000000
1.000000 0.529727 0.000000
1.000000 0.527311 0.000000
1.000000 0.523785 0.000000
1.000000 0.521693 0.000000
1.000000 0.521380 0.000000
1.000000 0.521028 0.000000
1.000000 0.521015 0.000000
1.000000 0.521015 0.000000
0.000000 0.310529 0.000000
0.000000 0.312954 0.000000
0.000000 0.316133 0.000000
0.000000 0.331393 0.000000
0.000000 0.347456 0.000000
0.000000 0.374236 0.000000
0.000000 0.403642 0.000000
0.000000 0.445002 0.000000
0.000000 0.484776 0.000000
0.022250 0.521098 0.000000
0.133055 0.552978 0.000000
0.246255 0.580372 0.000000
0.371878 0.603366 0.000000
0.505199 0.622611 0.000000
0.627576 0.636289 0.000000
0.722420 0.640588 0.000000
0.799935 0.641867 0.000000
0.864458 0.642228 0.000000
0.916823 0.640592 0.000000
0.961194 0.638587 0.000000
0.998948 0.636634 0.000000
1.000000 0.635393 0.000000
1.000000 0.631050 0.000000
1.000000 0.622936 0.000000
1.000000 0.617517 0.000000
1.000000 0.612257 0.000000
1.000000 0.608301 0.000000
1.000000 0.605292 0.000000
1.000000 0.604993 0.000000
1.000000 0.604817 0.000000
1.000000 0.604801 0.000000
1.000000 0.604801 0.000000
0.000000 0.353101 0.000000
0.000000 0.356216 0.000000
0.000000 0.359772 0.000000
0.000000 0.376894 0.000000
0.000000 0.394815 0.000000
0.000000 0.423322 0.000000
0.000000 0.455186 0.000000
0.000000 0.499291 0.000000
0.000000 0.541703 0.000000
0.017482 0.577462 0.000000
0.132158 0.610227 0.000000
0.245551 0.637165 0.000000
0.373006 0.661010 0.000000
0.506688 0.679886 0.000000
0.630236 0.694789 0.000000
0.728459 0.702629 0.000000
0.806720 0.704988 0.000000
0.870946 0.705386 0.000000
0.923815 0.704866 0.000000
0.967971 0.703021 0.000000
1.000000 0.701575 0.000000
1.000000 0.700366 0.000000
1.000000 0.699278 0.000000
1.000000 0.698460 0.000000
1.000000 0.696208 0.000000
1.000000 0.688658 0.000000
1.000000 0.685080 0.000000
1.000000 0.681467 0.000000
1.000000 0.681121 0.000000
1.000000 0.681121 0.000000
1.000000 0.681121 0.000000
1.000000 0.681121 0.000000
0.000000 0.394380 0.000000
0.000000 0.398042 0.000000
0.000000 0.402346 0.000000
0.000000 0.421277 0.000000
0.000000 0.441173 0.000000
0.000000 0.471379 0.000000
0.000000 0.505131 0.000000
0.000000 0.550263 0.000000
0.000000 0.591994 0.000000
0.015506 0.627497 0.000000
0.130997 0.659668 0.000000
0.245182 0.686989 0.000000
0.373007 0.710509 0.000000
0.507554 0.729801 0.000000
0.631236 0.744489 0.000000
0.731309 0.754665 0.000000
0.811009 0.758680 0.000000
0.875642 0.759952 0.000000
0.928350 0.759535 0.000000
0.972920 0.758452 0.000000
1.000000 0.757051 0.000000
1.000000 0.755852 0.000000
1.000000 0.754787 0.000000
1.000000 0.753799 0.000000
1.000000 0.754520 0.000000
1.000000 0.755260 0.000000
1.000000 0.755249 0.000000
1.000000 0.752037 0.000000
1.000000 0.751626 0.000000
1.000000 0.751626 0.000000
1.000000 0.751626 0.000000
1.000000 0.751626 0.000000
0.000000 0.435475 0.000000
0.000000 0.439794 0.000000
0.000000 0.444828 0.000000
0.000000 0.466135 0.000000
0.000000 0.487853 0.000000
0.000000 0.519730 0.000000
0.000000 0.553317 0.000000
0.000000 0.597109 0.000000
0.000000 0.638048 0.000000
0.014666 0.672453 0.000000
0.131187 0.704249 0.000000
0.245066 0.730899 0.000000
0.373253 0.754496 0.000000
0.507677 0.773360 0.000000
0.631796 0.788258 0.000000
0.731907 0.798216 0.000000
0.814538 0.805538 0.000000
0.879064 0.806837 0.000000
0.932057 0.807157 0.000000
0.976470 0.806153 0.000000
1.000000 0.805018 0.000000
1.000000 0.803852 0.000000
1.000000 0.804543 0.000000
1.000000 0.803560 0.000000
1.000000 0.804056 0.000000
1.000000 0.805164 0.000000
1.000000 0.805463 0.000000
1.000000 0.805602 0.000000
1.000000 0.805616 0.000000
1.000000 0.805616 0.000000
1.000000 0.805616 0.000000
1.000000 0.805616 0.000000
0.000000 0.477169 0.000000
0.000000 0.482003 0.000000
0.000000 0.487759 0.000000
0.000000 0.511076 0.000000
0.000000 0.534602 0.000000
0.000000 0.566235 0.000000
0.000000 0.599440 0.000000
0.000000 0.641859 0.000000
0.000000 0.681555 0.000000
0.017026 0.714795 0.000000
0.132558 0.745601 0.000000
0.246028 0.771707 0.000000
0.373949 0.794756 0.000000
0.508020 0.813461 0.000000
0.631989 0.828071 0.000000
0.732242 0.838127 0.000000
0.815430 0.845808 0.000000
0.882016 0.849472 0.000000
0.934931 0.849842 0.000000
0.979587 0.849504 0.000000
1.000000 0.848439 0.000000
1.000000 0.847329 0.000000
1.000000 0.848151 0.000000
1.000000 0.849616 0.000000
1.000000 0.850077 0.000000
1.000000 0.850975 0.000000
1.000000 0.851261 0.000000
1.000000 0.851387 0.000000
1.000000 0.851400 0.000000
1.000000 0.851400 0.000000
1.000000 0.851400 0.000000
1.000000 0.851400 0.000000
0.000000 0.519861 0.000000
0.000000 0.525477 0.000000
0.000000 0.531705 0.000000
0.000000 0.557020 0.000000
0.000000 0.580757 0.000000
0.000000 0.611587 0.000000
0.000000 0.643882 0.000000
0.000000 0.684368 0.000000
0.000000 0.722504 0.000000
0.020594 0.754175 0.000000
0.135138 0.783874 0.000000
0.247961 0.809043 0.000000
0.375058 0.831393 0.000000
0.508437 0.849477 0.000000
0.631838 0.863912 0.000000
0.731923 0.873742 0.000000
0.815161 0.881480 0.000000
0.883789 0.887082 0.000000
0.937041 0.887968 0.000000
0.981631 0.887680 0.000000
1.000000 0.887301 0.000000
1.000000 0.886239 0.000000
1.000000 0.887945 0.000000
1.000000 0.889530 0.000000
1.000000 0.890372 0.000000
1.000000 0.891206 0.000000
1.000000 0.891288 0.000000
1.000000 0.891414 0.000000
1.000000 0.891427 0.000000
1.000000 0.891427 0.000000
1.000000 0.891427 0.000000
1.000000 0.891427 0.000000
0.000000 0.561780 0.000000
0.000000 0.567544 0.000000
0.000000 0.574408 0.000000
0.000000 0.600447 0.000000
0.000000 0.625919 0.000000
0.000000 0.655996 0.000000
0.000000 0.687485 0.000000
0.000000 0.726151 0.000000
0.000000 0.762448 0.000000
0.026445 0.792441 0.000000
0.139288 0.820643 0.000000
0.251212 0.844783 0.000000
0.377517 0.866285 0.000000
0.509517 0.883581 0.000000
0.632099 0.897514 0.000000
0.731566 0.907216 0.000000
0.814638 0.914792 0.000000
0.883275 0.920420 0.000000
0.938667 0.923431 0.000000
0.983359 0.923324 0.000000
1.000000 0.923003 0.000000
1.000000 0.922638 0.000000
1.000000 0.924328 0.000000
1.000000 0.927095 0.000000
1.000000 0.927866 0.000000
1.000000 0.928474 0.000000
1.000000 0.928527 0.000000
1.000000 0.928460 0.000000
1.000000 0.928473 0.000000
1.000000 0.928473 0.000000
1.000000 0.928473 0.000000
1.000000 0.928473 0.000000
0.000000 0.605137 0.000000
0.000000 0.611987 0.000000
0.000000 0.619161 0.000000
0.000000 0.647059 0.000000
0.000000 0.672657 0.000000
0.000000 0.701773 0.000000
0.000000 0.731648 0.000000
0.000000 0.767087 0.000000
0.000000 0.801493 0.000000
0.033632 0.829523 0.000000
0.145308 0.856145 0.000000
0.255835 0.878972 0.000000
0.380524 0.899319 0.000000
0.511100 0.915786 0.000000
0.632339 0.929101 0.000000
0.731303 0.938479 0.000000
0.813952 0.945992 0.000000
0.882505 0.951490 0.000000
0.939009 0.955418 0.000000
0.984781 0.956402 0.000000
1.000000 0.957016 0.000000
1.000000 0.956832 0.000000
1.000000 0.958624 0.000000
1.000000 0.961277 0.000000
1.000000 0.962155 0.000000
1.000000 0.962717 0.000000
1.000000 0.962731 0.000000
1.000000 0.962646 0.000000
1.000000 0.962638 0.000000
1.000000 0.962638 0.000000
1.000000 0.962638 0.000000
1.000000 0.962638 0.000000
0.000000 0.648202 0.000000
0.000000 0.655232 0.000000
0.000000 0.663356 0.000000
0.000000 0.691608 0.000000
0.000000 0.718927 0.000000
0.000000 0.747140 0.000000
0.000000 0.776037 0.000000
0.000000 0.808915 0.000000
0.000000 0.840279 0.000000
0.047855 0.866473 0.000000
0.153908 0.891227 0.000000
0.262984 0.912574 0.000000
0.385873 0.931710 0.000000
0.514168 0.947071 0.000000
0.633487 0.959625 0.000000
0.731370 0.968604 0.000000
0.813554 0.975791 0.000000
0.881794 0.981298 0.000000
0.938217 0.985149 0.000000
0.985946 0.987878 0.000000
1.000000 0.988605 0.000000
1.000000 0.989576 0.000000
1.000000 0.991472 0.000000
1.000000 0.994069 0.000000
1.000000 0.994891 0.000000
1.000000 0.995243 0.000000
1.000000 0.995260 0.000000
1.000000 0.995164 0.000000
1.000000 0.995154 0.000000
1.000000 0.995154 0.000000
1.000000 0.995154 0.000000
1.000000 0.995154 0.000000
0.000000 0.686735 0.000000
0.000000 0.694434 0.000000
0.000000 0.702766 0.000000
0.000000 0.732181 0.000000
0.000000 0.759343 0.000000
0.000000 0.786666 0.000000
0.000000 0.814285 0.000000
0.000000 0.844736 0.000000
0.000000 0.874373 0.000000
0.054887 0.899115 0.000000
0.158710 0.922459 0.000000
0.266839 0.942621 0.000000
0.388082 0.960828 0.000000
0.515148 0.975545 0.000000
0.633052 0.987485 0.000000
0.730480 0.996126 0.000000
0.812387 1.000000 0.000000
0.880587 1.000000 0.000000
0.937105 1.000000 0.000000
0.984957 1.000000 0.000000
1.000000 1.000000 0.000000
1.000000 1.000000 0.000000
1.000000 1.000000 0.000000
1.000000 1.000000 0.000000
1.000000 1.000000 0.000000
1.000000 1.000000 0.000000
1.000000 1.000000 0.000000
1.000000 1.000000 0.000000
1.000000 1.000000 0.000000
1.000000 1.000000 0.000000
1.000000 1.000000 0.000000
1.000000 1.000000 0.000000
0.000000 0.723746 0.000000
0.000000 0.731413 0.000000
0.000000 0.740379 0.000000
0.000000 0.769623 0.000000
0.000000 0.797870 0.000000
0.000000 0.824449 0.000000
0.000000 0.851191 0.000000
0.000000 0.879943 0.000000
0.000000 0.907238 0.000000
0.062938 0.930814 0.000000
0.163994 0.952786 0.000000
0.271297 0.971778 0.000000
0.391093 0.988841 0.000000
0.516663 1.000000 0.000000
0.633040 1.000000 0.000000
0.729705 1.000000 0.000000
0.811173 1.000000 0.000000
0.879295 1.000000 0.000000
