WanderingClouds/Assets/WanderingCloud/GameArt/DraftClement/Frame_modif.CUBE
#Created by: Adobe Photoshop Export Color Lookup Plugin
TITLE "Frame.exr"
#LUT size
LUT_3D_SIZE 5
#data domain
#LUT data points
DOMAIN_MIN 0.000000 0.000000 0.000000
DOMAIN_MAX 0.903226 0.903226 0.903226
0.000000 0.000000 0.000000
0.000000 0.000000 0.000000
0.098447 0.000000 0.000000
0.330955 0.000000 0.000000
0.522958 0.000000 0.000000
0.000000 0.000000 0.000000
0.000000 0.000000 0.000000
0.205258 0.000000 0.000000
0.431769 0.000000 0.000000
0.631656 0.003917 0.000000
0.000000 0.173793 0.000000
0.000000 0.264862 0.000000
0.593184 0.382812 0.000000
0.916986 0.341577 0.000000
1.000000 0.347442 0.000000
0.000000 0.477169 0.000000
0.000000 0.641859 0.000000
0.631989 0.828071 0.000000
1.000000 0.847329 0.000000
1.000000 0.851400 0.000000
0.000000 0.754383 0.000000
0.000000 0.907404 0.000000
0.631092 1.000000 0.000000
1.000000 1.000000 0.000000
1.000000 1.000000 0.000000
0.000000 0.000000 0.000000
0.000000 0.000000 0.000000
0.148536 0.000000 0.000000
0.350445 0.000000 0.027603
0.545827 0.000000 0.062719
0.000000 0.000000 0.044471
0.000000 0.000000 0.000000
0.238363 0.000000 0.056553
0.531333 0.021174 0.106999
0.726225 0.054185 0.148281
0.000000 0.284946 0.000000
0.000000 0.294221 0.000000
0.593846 0.436305 0.000000
0.913965 0.399336 0.000000
1.000000 0.416975 0.000000
0.000000 0.603101 0.000000
0.000000 0.672067 0.000000
0.605176 0.868915 0.000000
1.000000 0.899780 0.000000
1.000000 0.904280 0.000000
0.000000 0.876362 0.045138
0.000000 0.938546 0.049225
0.572309 1.000000 0.000000
1.000000 1.000000 0.000000
1.000000 1.000000 0.000000
0.000000 0.000000 0.418228
0.000000 0.000000 0.434939
0.313806 0.000000 0.399396
0.675069 0.000000 0.362038
0.831158 0.000000 0.357336
0.000000 0.000000 0.552172
0.000000 0.000000 0.509832
0.429658 0.000000 0.474745
0.743098 0.000000 0.444230
0.888444 0.000000 0.474359
0.000000 0.415995 0.754227
0.000000 0.512477 0.733279
0.507775 0.459085 0.541799
0.817358 0.550413 0.655858
0.960343 0.609348 0.696994
0.000000 0.878563 0.753606
0.000000 0.963350 0.704985
0.491167 0.884301 0.554156
0.982982 0.913327 0.544576
1.000000 0.899058 0.569279
0.000000 1.000000 0.741367
0.000000 1.000000 0.678824
0.471313 1.000000 0.584292
0.967795 1.000000 0.582687
1.000000 1.000000 0.581034
0.000000 0.000000 0.778888
0.000000 0.000000 0.816379
0.306828 0.000000 0.759512
0.753840 0.000000 0.766588
0.979763 0.000000 0.761035
0.000000 0.000000 0.874122
0.000000 0.000000 0.871947
0.424878 0.000000 0.841698
0.869071 0.000000 0.839698
1.000000 0.000000 0.832806
0.000000 0.308703 1.000000
0.000000 0.386724 1.000000
0.426651 0.412276 0.913923
0.926073 0.471534 0.885044
1.000000 0.572485 0.890265
0.000000 0.845171 1.000000
0.000000 0.957331 1.000000
0.351003 0.982830 0.946054
0.948324 0.906757 0.896448
1.000000 0.923487 0.939003
0.000000 1.000000 1.000000
0.000000 1.000000 1.000000
0.359271 1.000000 0.902038
0.938361 1.000000 0.891266
1.000000 1.000000 0.890718
0.000000 0.000000 0.997100
0.000000 0.000000 1.000000
0.369198 0.000000 0.991492
0.813446 0.000000 0.982876
1.000000 0.000000 0.985985
0.000000 0.000000 1.000000
0.000000 0.000000 1.000000
0.424255 0.000000 1.000000
0.886775 0.000000 1.000000
1.000000 0.000000 1.000000
0.000000 0.257668 1.000000
0.000000 0.340115 1.000000
0.374081 0.388014 1.000000
0.936471 0.463028 1.000000
1.000000 0.472561 1.000000
0.000000 0.781159 1.000000
0.000000 0.900716 1.000000
0.297389 0.945487 1.000000
0.933413 0.886961 1.000000
1.000000 0.918814 1.000000
0.000000 1.000000 1.000000
0.000000 1.000000 1.000000
0.277797 1.000000 1.000000
0.908594 1.000000 1.000000
1.000000 1.000000 1.000000
