WanderingClouds/Assets/WanderingCloud/GameArt/DraftClement/YS_Cube_Frame_Modif.CUBE
#Created by: Adobe Photoshop Export Color Lookup Plugin
TITLE "YS_Cube_Frame_Modif.psd"
#LUT size
LUT_3D_SIZE 32
#data domain
DOMAIN_MIN 0.0 0.0 0.0
DOMAIN_MAX 1.0 1.0 1.0
#LUT data points
0.000000 0.000202 0.000000
0.000285 0.000169 0.000000
0.000657 0.000131 0.000000
0.001997 0.000027 0.000000
0.003644 0.000000 0.000000
0.005621 0.000000 0.000000
0.008305 0.000000 0.000000
0.012583 0.000000 0.000000
0.018666 0.000000 0.000000
0.027884 0.000000 0.000000
0.040678 0.000000 0.000000
0.058748 0.000000 0.000000
0.081286 0.000000 0.000000
0.107475 0.000000 0.000000
0.135863 0.000000 0.000000
0.165111 0.000000 0.000000
0.193772 0.000000 0.000000
0.221274 0.000000 0.000000
0.247894 0.000000 0.000000
0.274397 0.000000 0.000000
0.301914 0.000000 0.000000
0.332423 0.000000 0.000000
0.365867 0.000000 0.000000
0.405469 0.000000 0.000000
0.453337 0.000000 0.000000
0.519928 0.000000 0.000000
0.631145 0.000000 0.000000
1.000000 0.000000 0.000000
1.000000 0.000000 0.000000
1.000000 0.000000 0.000000
1.000000 0.000000 0.000000
1.000000 0.000000 0.000000
0.000000 0.000503 0.000000
0.000284 0.000503 0.000000
0.000657 0.000474 0.000000
0.001997 0.000363 0.000000
0.003647 0.000256 0.000000
0.005652 0.000167 0.000000
0.008351 0.000070 0.000000
0.012719 0.000000 0.000000
0.018849 0.000000 0.000000
0.028320 0.000000 0.000000
0.041301 0.000000 0.000000
0.059729 0.000000 0.000000
0.082580 0.000000 0.000000
0.109145 0.000000 0.000000
0.137793 0.000000 0.000000
0.167259 0.000000 0.000000
0.196057 0.000000 0.000000
0.223706 0.000000 0.000000
0.250426 0.000000 0.000000
0.277134 0.000000 0.000000
0.304921 0.000000 0.000000
0.335839 0.000000 0.000000
0.369821 0.000000 0.000000
0.410409 0.000000 0.000000
0.459963 0.000000 0.000000
0.530181 0.000000 0.000000
0.653164 0.000000 0.000000
1.000000 0.000000 0.000000
1.000000 0.000000 0.000000
1.000000 0.000000 0.000000
1.000000 0.000000 0.000000
1.000000 0.000000 0.000000
0.000000 0.000879 0.000000
0.000256 0.000879 0.000000
0.000657 0.000880 0.000000
0.001997 0.000769 0.000000
0.003655 0.000675 0.000000
0.005663 0.000581 0.000000
0.008424 0.000487 0.000000
0.012808 0.000393 0.000000
0.019101 0.000272 0.000000
0.028722 0.000106 0.000000
0.042070 0.000000 0.000000
0.060804 0.000000 0.000000
0.084180 0.000000 0.000000
0.111084 0.000000 0.000000
0.140134 0.000000 0.000000
0.169855 0.000000 0.000000
0.198873 0.000000 0.000000
0.226707 0.000000 0.000000
0.253622 0.000000 0.000000
0.280622 0.000000 0.000000
0.308863 0.000000 0.000000
0.340265 0.000000 0.000000
0.375067 0.000000 0.000000
0.416836 0.000000 0.000000
0.468604 0.000000 0.000000
0.544024 0.000000 0.000000
0.688623 0.000000 0.000000
1.000000 0.000000 0.000000
1.000000 0.000000 0.000000
1.000000 0.000000 0.000000
1.000000 0.000000 0.000000
1.000000 0.000000 0.000000
0.000000 0.002365 0.000000
0.000130 0.002370 0.000000
0.000519 0.002371 0.000000
0.001999 0.002393 0.000000
0.003667 0.002257 0.000000
0.005782 0.002166 0.000000
0.008641 0.002053 0.000000
0.013401 0.001976 0.000000
0.020021 0.001854 0.000000
0.030672 0.001682 0.000000
0.044905 0.001416 0.000000
0.065468 0.001039 0.000000
0.090264 0.000785 0.000000
0.118976 0.000600 0.000000
0.149100 0.000436 0.000000
0.179834 0.000273 0.000000
0.209415 0.000134 0.000000
0.237921 0.000016 0.000000
0.265343 0.000000 0.000000
0.293584 0.000000 0.000000
0.323771 0.000000 0.000000
0.357870 0.000000 0.000000
0.396399 0.000000 0.000000
0.444429 0.000000 0.000000
0.507616 0.000000 0.000000
0.615071 0.000000 0.000000
1.000000 0.000000 0.000000
1.000000 0.000000 0.000000
1.000000 0.000000 0.000000
1.000000 0.000000 0.000000
1.000000 0.000000 0.000000
1.000000 0.000000 0.000000
0.000000 0.004201 0.000000
0.000021 0.004204 0.000000
0.000408 0.004217 0.000000
0.001867 0.004243 0.000000
0.003676 0.004282 0.000000
0.005807 0.004172 0.000000
0.008840 0.004053 0.000000
0.013752 0.003950 0.000000
0.020940 0.003814 0.000000
0.032079 0.003602 0.000000
0.047735 0.003286 0.000000
0.069526 0.002771 0.000000
0.096516 0.002323 0.000000
0.126587 0.002064 0.000000
0.158377 0.001827 0.000000
0.190027 0.001656 0.000000
0.220401 0.001498 0.000000
0.249792 0.001352 0.000000
0.278214 0.001247 0.000000
0.308172 0.001152 0.000000
0.340696 0.001040 0.000000
0.378171 0.000960 0.000000
0.421888 0.000868 0.000000
0.478951 0.000787 0.000000
0.562709 0.000721 0.000000
0.778289 0.000657 0.000000
1.000000 0.000583 0.000000
1.000000 0.000508 0.000000
1.000000 0.000455 0.000000
1.000000 0.000394 0.000000
1.000000 0.000326 0.000000
1.000000 0.000270 0.000000
0.000000 0.006344 0.000000
0.000000 0.006344 0.000000
0.000292 0.006365 0.000000
0.001705 0.006508 0.000000
0.003464 0.006563 0.000000
0.005925 0.006787 0.000000
0.009014 0.006667 0.000000
0.014423 0.006692 0.000000
0.021941 0.006527 0.000000
0.034296 0.006349 0.000000
0.050863 0.005967 0.000000
0.074716 0.005363 0.000000
0.103308 0.004573 0.000000
0.135997 0.003848 0.000000
0.168996 0.003419 0.000000
0.201906 0.002965 0.000000
0.233062 0.002774 0.000000
0.263388 0.002608 0.000000
0.293565 0.002483 0.000000
0.326076 0.002363 0.000000
0.362289 0.002246 0.000000
0.405299 0.002140 0.000000
0.457981 0.002040 0.000000
0.533579 0.001960 0.000000
0.681256 0.001883 0.000000
1.000000 0.001787 0.000000
1.000000 0.001715 0.000000
1.000000 0.001639 0.000000
1.000000 0.001560 0.000000
1.000000 0.001501 0.000000
1.000000 0.001438 0.000000
1.000000 0.001364 0.000000
0.000000 0.009248 0.000000
0.000000 0.009244 0.000000
0.000193 0.009274 0.000000
0.001571 0.009472 0.000000
0.003255 0.009707 0.000000
0.005652 0.010011 0.000000
0.009229 0.010362 0.000000
0.014742 0.010421 0.000000
0.023031 0.010447 0.000000
0.035966 0.010235 0.000000
0.054258 0.009916 0.000000
0.079393 0.009086 0.000000
0.110271 0.008231 0.000000
0.144525 0.006974 0.000000
0.179872 0.005985 0.000000
0.213805 0.005197 0.000000
0.246591 0.004663 0.000000
0.278184 0.004460 0.000000
0.311044 0.004232 0.000000
0.346874 0.004064 0.000000
0.387865 0.003928 0.000000
0.438870 0.003790 0.000000
0.506405 0.003712 0.000000
0.624841 0.003593 0.000000
1.000000 0.003529 0.000000
1.000000 0.003433 0.000000
1.000000 0.003354 0.000000
1.000000 0.003264 0.000000
1.000000 0.003188 0.000000
1.000000 0.003106 0.000000
1.000000 0.003014 0.000000
1.000000 0.002945 0.000000
0.000000 0.013406 0.000000
0.000000 0.013408 0.000000
0.000066 0.013462 0.000000
0.001435 0.013847 0.000000
0.003078 0.014201 0.000000
0.005329 0.015031 0.000000
0.008803 0.015575 0.000000
0.015445 0.016431 0.000000
0.024056 0.016490 0.000000
0.038560 0.016477 0.000000
0.057922 0.016083 0.000000
0.085667 0.015436 0.000000
0.118069 0.014351 0.000000
0.154682 0.013213 0.000000
0.191278 0.011673 0.000000
0.226863 0.010507 0.000000
0.261266 0.009451 0.000000
0.296046 0.008738 0.000000
0.332722 0.008236 0.000000
0.373956 0.007762 0.000000
0.422729 0.007541 0.000000
0.488213 0.007346 0.000000
0.591197 0.007340 0.000000
1.000000 0.007279 0.000000
1.000000 0.007441 0.000000
1.000000 0.007447 0.000000
1.000000 0.007497 0.000000
1.000000 0.007440 0.000000
1.000000 0.007285 0.000000
1.000000 0.007151 0.000000
1.000000 0.007017 0.000000
1.000000 0.006902 0.000000
0.000000 0.019069 0.000000
0.000000 0.019075 0.000000
0.000000 0.019185 0.000000
0.001297 0.019747 0.000000
0.002832 0.020447 0.000000
0.004945 0.021630 0.000000
0.008388 0.022904 0.000000
0.015007 0.024245 0.000000
0.025313 0.025361 0.000000
0.040427 0.025368 0.000000
0.062009 0.025271 0.000000
0.091183 0.024465 0.000000
0.126366 0.023606 0.000000
0.164406 0.022231 0.000000
0.203046 0.020869 0.000000
0.239986 0.019142 0.000000
0.276571 0.017745 0.000000
0.315095 0.016317 0.000000
0.357118 0.015289 0.000000
0.405575 0.014329 0.000000
0.466676 0.013817 0.000000
0.560492 0.013509 0.000000
0.836393 0.013498 0.000000
1.000000 0.013618 0.000000
1.000000 0.013911 0.000000
1.000000 0.014317 0.000000
1.000000 0.014508 0.000000
1.000000 0.014674 0.000000
1.000000 0.014484 0.000000
1.000000 0.014252 0.000000
1.000000 0.014028 0.000000
1.000000 0.013807 0.000000
0.000000 0.027297 0.000000
0.000000 0.027361 0.000000
0.000000 0.027501 0.000000
0.001172 0.028469 0.000000
0.002657 0.029438 0.000000
0.004222 0.031783 0.000000
0.007257 0.033591 0.000000
0.014684 0.036042 0.000000
0.025294 0.038031 0.000000
0.043335 0.039546 0.000000
0.066065 0.039474 0.000000
0.098287 0.039136 0.000000
0.135005 0.038058 0.000000
0.175749 0.036960 0.000000
0.215509 0.035206 0.000000
0.254532 0.033500 0.000000
0.293651 0.031617 0.000000
0.336797 0.030143 0.000000
0.385055 0.028733 0.000000
0.443952 0.027666 0.000000
0.526199 0.026939 0.000000
0.706210 0.026554 0.000000
1.000000 0.026522 0.000000
1.000000 0.026709 0.000000
1.000000 0.027098 0.000000
1.000000 0.027689 0.000000
1.000000 0.027958 0.000000
1.000000 0.028198 0.000000
1.000000 0.027875 0.000000
1.000000 0.027506 0.000000
1.000000 0.027139 0.000000
1.000000 0.026786 0.000000
0.000000 0.038076 0.000000
0.000000 0.038195 0.000000
0.000000 0.038445 0.000000
0.001018 0.039783 0.000000
0.002483 0.041346 0.000000
0.003983 0.044488 0.000000
0.006375 0.047974 0.000000
0.013169 0.051380 0.000000
0.025098 0.054938 0.000000
0.044144 0.058103 0.000000
0.070494 0.059613 0.000000
0.104060 0.059242 0.000000
0.143889 0.058854 0.000000
0.185942 0.057505 0.000000
0.228171 0.056075 0.000000
0.268881 0.053992 0.000000
0.312192 0.052223 0.000000
0.360751 0.050415 0.000000
0.417820 0.048992 0.000000
0.493170 0.047741 0.000000
0.624711 0.047059 0.000000
1.000000 0.046646 0.000000
1.000000 0.046670 0.000000
1.000000 0.046929 0.000000
1.000000 0.047467 0.000000
1.000000 0.048189 0.000000
1.000000 0.048509 0.000000
1.000000 0.048798 0.000000
1.000000 0.048318 0.000000
1.000000 0.047769 0.000000
1.000000 0.047317 0.000000
1.000000 0.046786 0.000000
0.000000 0.052154 0.000000
0.000000 0.052388 0.000000
0.000000 0.052739 0.000000
0.000876 0.054805 0.000000
0.002306 0.056914 0.000000
0.003718 0.061525 0.000000
0.006008 0.066075 0.000000
0.012200 0.072386 0.000000
0.023470 0.077242 0.000000
0.044782 0.082855 0.000000
0.073543 0.087037 0.000000
0.110630 0.088200 0.000000
0.151734 0.087786 0.000000
0.196690 0.087379 0.000000
0.240214 0.085643 0.000000
0.284025 0.083803 0.000000
0.331697 0.081553 0.000000
0.387794 0.079687 0.000000
0.457020 0.077759 0.000000
0.562934 0.076179 0.000000
1.000000 0.075290 0.000000
1.000000 0.074812 0.000000
1.000000 0.074787 0.000000
1.000000 0.075042 0.000000
1.000000 0.075678 0.000000
1.000000 0.076520 0.000000
1.000000 0.076902 0.000000
1.000000 0.077245 0.000000
1.000000 0.076570 0.000000
1.000000 0.075800 0.000000
1.000000 0.075433 0.000000
1.000000 0.074836 0.000000
0.000000 0.069191 0.000000
0.000000 0.069561 0.000000
0.000000 0.070064 0.000000
0.000743 0.072832 0.000000
0.002141 0.075952 0.000000
0.003505 0.081834 0.000000
0.005522 0.088459 0.000000
0.011137 0.096508 0.000000
0.022113 0.104517 0.000000
0.043240 0.111427 0.000000
0.075064 0.118209 0.000000
0.115223 0.122349 0.000000
0.159714 0.123582 0.000000
0.205706 0.123219 0.000000
0.252203 0.122502 0.000000
0.298729 0.120435 0.000000
0.352542 0.118520 0.000000
0.417397 0.116359 0.000000
0.506090 0.114422 0.000000
0.691031 0.112527 0.000000
1.000000 0.111471 0.000000
1.000000 0.110934 0.000000
1.000000 0.110923 0.000000
1.000000 0.111183 0.000000
1.000000 0.111783 0.000000
1.000000 0.112684 0.000000
1.000000 0.112977 0.000000
1.000000 0.113297 0.000000
1.000000 0.112575 0.000000
1.000000 0.111608 0.000000
1.000000 0.111319 0.000000
1.000000 0.110884 0.000000
0.000000 0.088814 0.000000
0.000000 0.089336 0.000000
0.000000 0.090000 0.000000
0.000619 0.093807 0.000000
0.001984 0.097717 0.000000
0.003298 0.105471 0.000000
0.005257 0.113410 0.000000
0.009711 0.124921 0.000000
0.019339 0.134609 0.000000
0.042666 0.144288 0.000000
0.075121 0.152243 0.000000
0.118975 0.159820 0.000000
0.166103 0.163236 0.000000
0.214897 0.164522 0.000000
0.262766 0.163773 0.000000
0.313910 0.162538 0.000000
0.373427 0.160415 0.000000
0.450651 0.158463 0.000000
0.570644 0.156260 0.000000
1.000000 0.154211 0.000000
1.000000 0.152941 0.000000
1.000000 0.152223 0.000000
1.000000 0.152176 0.000000
1.000000 0.152416 0.000000
1.000000 0.152974 0.000000
1.000000 0.153765 0.000000
1.000000 0.153891 0.000000
1.000000 0.154057 0.000000
1.000000 0.153418 0.000000
1.000000 0.152491 0.000000
1.000000 0.152454 0.000000
1.000000 0.152151 0.000000
0.000000 0.110179 0.000000
0.000000 0.110883 0.000000
0.000000 0.111765 0.000000
0.000483 0.116347 0.000000
0.001841 0.121390 0.000000
0.003135 0.130422 0.000000
0.004851 0.140409 0.000000
0.008745 0.153656 0.000000
0.017316 0.166622 0.000000
0.039831 0.177645 0.000000
0.075304 0.188243 0.000000
0.119518 0.196755 0.000000
0.171476 0.204643 0.000000
0.221609 0.206811 0.000000
0.272437 0.207626 0.000000
0.326882 0.206356 0.000000
0.394079 0.205082 0.000000
0.485095 0.203015 0.000000
0.669423 0.201003 0.000000
1.000000 0.198772 0.000000
1.000000 0.197435 0.000000
1.000000 0.196601 0.000000
1.000000 0.196264 0.000000
1.000000 0.196491 0.000000
1.000000 0.196645 0.000000
1.000000 0.197353 0.000000
1.000000 0.197249 0.000000
1.000000 0.197217 0.000000
1.000000 0.196780 0.000000
1.000000 0.195965 0.000000
1.000000 0.195936 0.000000
1.000000 0.195936 0.000000
0.000000 0.132303 0.000000
0.000000 0.133238 0.000000
0.000000 0.134318 0.000000
0.000364 0.139867 0.000000
0.001704 0.145720 0.000000
0.002959 0.156326 0.000000
0.004628 0.167551 0.000000
0.007535 0.183473 0.000000
0.014809 0.198005 0.000000
0.038430 0.211581 0.000000
0.074386 0.223385 0.000000
0.120339 0.234484 0.000000
0.172798 0.243418 0.000000
0.227718 0.250604 0.000000
0.279788 0.251636 0.000000
0.338683 0.251725 0.000000
0.411724 0.250369 0.000000
0.521043 0.248970 0.000000
0.929412 0.246757 0.000000
1.000000 0.244573 0.000000
1.000000 0.243078 0.000000
1.000000 0.242146 0.000000
1.000000 0.241608 0.000000
1.000000 0.241371 0.000000
1.000000 0.241231 0.000000
1.000000 0.241309 0.000000
1.000000 0.240972 0.000000
1.000000 0.240638 0.000000
1.000000 0.240503 0.000000
1.000000 0.240031 0.000000
1.000000 0.240005 0.000000
1.000000 0.240005 0.000000
0.000000 0.154213 0.000000
0.000000 0.155253 0.000000
0.000000 0.156613 0.000000
0.000255 0.162982 0.000000
0.001569 0.169752 0.000000
0.002799 0.181314 0.000000
0.004340 0.194106 0.000000
0.006900 0.211386 0.000000
0.013233 0.228339 0.000000
0.035885 0.243397 0.000000
0.073829 0.257952 0.000000
0.119887 0.270465 0.000000
0.173982 0.282433 0.000000
0.229876 0.292021 0.000000
0.286308 0.297309 0.000000
0.347818 0.297507 0.000000
0.428095 0.297209 0.000000
0.555913 0.295585 0.000000
1.000000 0.293783 0.000000
1.000000 0.291186 0.000000
1.000000 0.289439 0.000000
1.000000 0.288314 0.000000
1.000000 0.287419 0.000000
1.000000 0.286939 0.000000
1.000000 0.286254 0.000000
1.000000 0.285959 0.000000
1.000000 0.285375 0.000000
1.000000 0.284735 0.000000
1.000000 0.284612 0.000000
1.000000 0.284455 0.000000
1.000000 0.284450 0.000000
1.000000 0.284450 0.000000
0.000000 0.175431 0.000000
0.000000 0.176585 0.000000
0.000000 0.178085 0.000000
0.000156 0.185315 0.000000
0.001469 0.192879 0.000000
0.002671 0.205430 0.000000
0.004177 0.219125 0.000000
0.006191 0.238464 0.000000
0.011738 0.257258 0.000000
0.034676 0.274892 0.000000
0.072964 0.292021 0.000000
0.119849 0.308351 0.000000
0.174257 0.323496 0.000000
0.231175 0.337374 0.000000
0.290565 0.348032 0.000000
0.355883 0.350177 0.000000
0.441257 0.349865 0.000000
0.592327 0.348957 0.000000
1.000000 0.346620 0.000000
1.000000 0.344118 0.000000
1.000000 0.341769 0.000000
1.000000 0.340076 0.000000
1.000000 0.338749 0.000000
1.000000 0.337626 0.000000
1.000000 0.336524 0.000000
1.000000 0.335544 0.000000
1.000000 0.334766 0.000000
1.000000 0.333912 0.000000
1.000000 0.333831 0.000000
1.000000 0.333753 0.000000
1.000000 0.333746 0.000000
1.000000 0.333746 0.000000
0.000000 0.195546 0.000000
0.000000 0.197009 0.000000
0.000000 0.198664 0.000000
0.000062 0.206655 0.000000
0.001355 0.215012 0.000000
0.002549 0.228296 0.000000
0.003988 0.243260 0.000000
0.005858 0.264174 0.000000
0.010902 0.285743 0.000000
0.033127 0.306539 0.000000
0.072333 0.328328 0.000000
0.119174 0.348752 0.000000
0.174287 0.369295 0.000000
0.231311 0.387700 0.000000
0.291433 0.403903 0.000000
0.361091 0.412591 0.000000
0.451543 0.413524 0.000000
0.622282 0.412274 0.000000
1.000000 0.410172 0.000000
1.000000 0.406675 0.000000
1.000000 0.403839 0.000000
1.000000 0.401396 0.000000
1.000000 0.399268 0.000000
1.000000 0.397506 0.000000
1.000000 0.397145 0.000000
1.000000 0.395442 0.000000
1.000000 0.394703 0.000000
1.000000 0.393528 0.000000
1.000000 0.393412 0.000000
1.000000 0.393412 0.000000
1.000000 0.393412 0.000000
1.000000 0.393412 0.000000
0.000000 0.214802 0.000000
0.000000 0.216509 0.000000
0.000000 0.218509 0.000000
0.000000 0.227343 0.000000
0.001273 0.236653 0.000000
0.002455 0.250920 0.000000
0.003842 0.266991 0.000000
0.005568 0.290479 0.000000
0.010300 0.315835 0.000000
0.032416 0.341099 0.000000
0.071636 0.368075 0.000000
0.118690 0.395222 0.000000
0.173889 0.423068 0.000000
0.231204 0.450354 0.000000
0.291416 0.474963 0.000000
0.363165 0.494736 0.000000
0.458439 0.501089 0.000000
0.648960 0.500904 0.000000
1.000000 0.497417 0.000000
1.000000 0.492921 0.000000
1.000000 0.488145 0.000000
1.000000 0.484027 0.000000
1.000000 0.480484 0.000000
1.000000 0.477201 0.000000
1.000000 0.477339 0.000000
1.000000 0.477619 0.000000
1.000000 0.476781 0.000000
1.000000 0.475938 0.000000
1.000000 0.475753 0.000000
1.000000 0.475753 0.000000
1.000000 0.475753 0.000000
1.000000 0.475753 0.000000
0.000000 0.233981 0.000000
0.000000 0.236012 0.000000
0.000000 0.238364 0.000000
0.000000 0.248416 0.000000
0.001197 0.258737 0.000000
0.002351 0.274202 0.000000
0.003796 0.292207 0.000000
0.005719 0.319241 0.000000
0.010303 0.349451 0.000000
0.032035 0.380181 0.000000
0.071500 0.415146 0.000000
0.118320 0.452040 0.000000
0.173615 0.494380 0.000000
0.230848 0.539936 0.000000
0.291221 0.589927 0.000000
0.362898 0.637385 0.000000
0.464372 0.685725 0.000000
0.672113 0.685531 0.000000
1.000000 0.678930 0.000000
1.000000 0.664041 0.000000
1.000000 0.650491 0.000000
1.000000 0.638361 0.000000
1.000000 0.638362 0.000000
1.000000 0.628854 0.000000
1.000000 0.628245 0.000000
1.000000 0.631087 0.000000
1.000000 0.630448 0.000000
1.000000 0.629117 0.000000
1.000000 0.628987 0.000000
1.000000 0.628987 0.000000
1.000000 0.628987 0.000000
1.000000 0.628987 0.000000
0.000000 0.253662 0.000000
0.000000 0.255947 0.000000
0.000000 0.258689 0.000000
0.000000 0.269898 0.000000
0.001112 0.281923 0.000000
0.002250 0.299709 0.000000
0.003689 0.320809 0.000000
0.005816 0.352577 0.000000
0.010809 0.389417 0.000000
0.032607 0.428727 0.000000
0.071811 0.477005 0.000000
0.118445 0.535336 0.000000
0.173579 0.618958 0.000000
0.230599 0.776946 0.000000
0.290825 1.000000 0.000000
0.362462 1.000000 0.000000
0.464792 1.000000 0.000000
0.696293 1.000000 0.000000
1.000000 1.000000 0.000000
1.000000 1.000000 0.000000
1.000000 1.000000 0.000000
1.000000 1.000000 0.000000
1.000000 1.000000 0.000000
1.000000 1.000000 0.000000
1.000000 1.000000 0.000000
1.000000 1.000000 0.000000
1.000000 1.000000 0.000000
1.000000 1.000000 0.000000
1.000000 1.000000 0.000000
1.000000 1.000000 0.000000
1.000000 1.000000 0.000000
1.000000 1.000000 0.000000
0.000000 0.274273 0.000000
0.000000 0.277127 0.000000
0.000000 0.280402 0.000000
0.000000 0.294321 0.000000
0.001020 0.308594 0.000000
0.002155 0.329272 0.000000
0.003694 0.354272 0.000000
0.006278 0.392427 0.000000
0.011556 0.439431 0.000000
0.033512 0.493752 0.000000
0.072601 0.573256 0.000000
0.119011 0.719691 0.000000
0.173738 1.000000 0.000000
0.230419 1.000000 0.000000
0.290279 1.000000 0.000000
0.361486 1.000000 0.000000
0.463072 1.000000 0.000000
0.712234 1.000000 0.000000
1.000000 1.000000 0.000000
1.000000 1.000000 0.000000
1.000000 1.000000 0.000000
1.000000 1.000000 0.000000
1.000000 1.000000 0.000000
1.000000 1.000000 0.000000
1.000000 1.000000 0.000000
1.000000 1.000000 0.000000
1.000000 1.000000 0.000000
1.000000 1.000000 0.000000
1.000000 1.000000 0.000000
1.000000 1.000000 0.000000
1.000000 1.000000 0.000000
1.000000 1.000000 0.000000
0.000000 0.297077 0.000000
0.000000 0.300491 0.000000
0.000000 0.304660 0.000000
0.000000 0.321505 0.000000
0.000947 0.339905 0.000000
0.002052 0.364769 0.000000
0.003565 0.395750 0.000000
0.006549 0.444805 0.000000
0.012744 0.511909 0.000000
0.035125 0.607846 0.000000
0.074024 1.000000 0.000000
0.120111 1.000000 0.000000
0.174485 1.000000 0.000000
0.230517 1.000000 0.000000
0.289985 1.000000 0.000000
0.360525 1.000000 0.000000
0.460984 1.000000 0.000000
0.700769 1.000000 0.000000
1.000000 1.000000 0.000000
1.000000 1.000000 0.000000
1.000000 1.000000 0.000000
1.000000 1.000000 0.000000
1.000000 1.000000 0.000000
1.000000 1.000000 0.000000
1.000000 1.000000 0.000000
1.000000 1.000000 0.000000
1.000000 1.000000 0.000000
1.000000 1.000000 0.000000
1.000000 1.000000 0.000000
1.000000 1.000000 0.000000
1.000000 1.000000 0.000000
1.000000 1.000000 0.000000
0.000000 0.324734 0.000000
0.000000 0.329564 0.000000
0.000000 0.334798 0.000000
0.000000 0.356961 0.000000
0.000845 0.380394 0.000000
0.001964 0.412137 0.000000
0.003703 0.453232 0.000000
0.007941 0.523198 0.000000
0.014780 0.657430 0.000000
0.037134 1.000000 0.000000
0.076159 1.000000 0.000000
0.121834 1.000000 0.000000
0.175472 1.000000 0.000000
0.230869 1.000000 0.000000
0.289665 1.000000 0.000000
0.359644 1.000000 0.000000
0.458681 1.000000 0.000000
0.688142 1.000000 0.000000
1.000000 1.000000 0.000000
1.000000 1.000000 0.000000
1.000000 1.000000 0.000000
1.000000 1.000000 0.000000
1.000000 1.000000 0.000000
1.000000 1.000000 0.000000
1.000000 1.000000 0.000000
1.000000 1.000000 0.000000
1.000000 1.000000 0.000000
1.000000 1.000000 0.000000
1.000000 1.000000 0.000000
1.000000 1.000000 0.000000
1.000000 1.000000 0.000000
1.000000 1.000000 0.000000
0.000000 0.357911 0.000000
0.000000 0.364073 0.000000
0.000000 0.371496 0.000000
0.000000 0.400311 0.000000
0.000762 0.434383 0.000000
0.001872 0.479889 0.000000
0.003567 0.547693 0.000000
0.008670 0.718361 0.000000
0.018161 1.000000 0.000000
0.041412 1.000000 0.000000
0.079342 1.000000 0.000000
0.124621 1.000000 0.000000
0.177452 1.000000 0.000000
0.231838 1.000000 0.000000
0.289926 1.000000 0.000000
0.359083 1.000000 0.000000
0.456907 1.000000 0.000000
0.676985 1.000000 0.000000
1.000000 1.000000 0.000000
1.000000 1.000000 0.000000
1.000000 1.000000 0.000000
1.000000 1.000000 0.000000
1.000000 1.000000 0.000000
1.000000 1.000000 0.000000
1.000000 1.000000 0.000000
1.000000 1.000000 0.000000
1.000000 1.000000 0.000000
1.000000 1.000000 0.000000
1.000000 1.000000 0.000000
1.000000 1.000000 0.000000
1.000000 1.000000 0.000000
1.000000 1.000000 0.000000
0.000000 0.394950 0.000000
0.000000 0.403500 0.000000
0.000000 0.413366 0.000000
0.000000 0.454087 0.000000
0.000693 0.504809 0.000000
0.001769 0.583750 0.000000
0.003586 0.790901 0.000000
0.009482 1.000000 0.000000
0.019971 1.000000 0.000000
0.043508 1.000000 0.000000
0.081060 1.000000 0.000000
0.126029 1.000000 0.000000
0.178110 1.000000 0.000000
0.231942 1.000000 0.000000
0.289270 1.000000 0.000000
0.357730 1.000000 0.000000
0.453921 1.000000 0.000000
0.663453 1.000000 0.000000
1.000000 1.000000 0.000000
1.000000 1.000000 0.000000
1.000000 1.000000 0.000000
1.000000 1.000000 0.000000
1.000000 1.000000 0.000000
1.000000 1.000000 0.000000
1.000000 1.000000 0.000000
1.000000 1.000000 0.000000
1.000000 1.000000 0.000000
1.000000 1.000000 0.000000
1.000000 1.000000 0.000000
1.000000 1.000000 0.000000
1.000000 1.000000 0.000000
1.000000 1.000000 0.000000
0.000000 0.441234 0.000000
0.000000 0.452865 0.000000
0.000000 0.467663 0.000000
0.000000 0.529700 0.000000
0.000621 0.635417 0.000000
0.001694 1.000000 0.000000
0.003477 1.000000 0.000000
0.009728 1.000000 0.000000
0.021890 1.000000 0.000000
0.045972 1.000000 0.000000
0.082974 1.000000 0.000000
0.127692 1.000000 0.000000
0.179116 1.000000 0.000000
0.232265 1.000000 0.000000
0.288875 1.000000 0.000000
0.356474 1.000000 0.000000
0.450965 1.000000 0.000000
