WanderingClouds/Assets/WanderingCloud/GameArt/DraftClement/YS_Cube_Frame_Modif.CUBE
#Created by: Adobe Photoshop Export Color Lookup Plugin
TITLE "YS_Cube_Frame_Modif.psd"
#LUT size
LUT_3D_SIZE 5
#data domain
#LUT data points
DOMAIN_MIN 0.000000 0.000000 0.000000
DOMAIN_MAX 0.903226 0.903226 0.903226
0.000000 0.000202 0.000000
0.012583 0.000000 0.000000
0.135863 0.000000 0.000000
0.332423 0.000000 0.000000
1.000000 0.000000 0.000000
0.000000 0.013406 0.000000
0.015445 0.016431 0.000000
0.191278 0.011673 0.000000
0.488213 0.007346 0.000000
1.000000 0.007285 0.000000
0.000000 0.110179 0.000000
0.008745 0.153656 0.000000
0.272437 0.207626 0.000000
1.000000 0.196601 0.000000
1.000000 0.196780 0.000000
0.000000 0.253662 0.000000
0.005816 0.352577 0.000000
0.290825 1.000000 0.000000
1.000000 1.000000 0.000000
1.000000 1.000000 0.000000
0.000000 0.494163 0.000000
0.009551 1.000000 0.000000
0.287396 1.000000 0.000000
1.000000 1.000000 0.000000
1.000000 1.000000 0.000000
0.000000 0.000000 0.020236
0.013030 0.000000 0.021805
0.145910 0.000000 0.013839
0.354600 0.000000 0.009349
1.000000 0.000000 0.008160
0.000000 0.014394 0.025718
0.012463 0.015674 0.023005
0.190238 0.011958 0.012805
0.493061 0.007634 0.008701
1.000000 0.007564 0.007566
0.000000 0.125512 0.025962
0.005138 0.165111 0.020109
0.269126 0.229600 0.008365
1.000000 0.219240 0.004562
1.000000 0.220853 0.003874
0.000000 0.277213 0.027816
0.003986 0.373791 0.020271
0.271564 1.000000 0.008570
1.000000 1.000000 0.004596
1.000000 1.000000 0.004495
0.000000 0.636624 0.043263
0.003198 1.000000 0.038089
0.251424 1.000000 0.021006
1.000000 1.000000 0.015067
1.000000 1.000000 0.014993
0.000000 0.000000 0.163505
0.008705 0.000000 0.179731
0.151214 0.000000 0.195907
0.369465 0.000000 0.182590
1.000000 0.000000 0.176986
0.000000 0.010958 0.204487
0.007338 0.013217 0.212378
0.196859 0.011942 0.227474
0.533330 0.008161 0.212973
1.000000 0.008266 0.208044
0.000000 0.139360 0.259386
0.004856 0.183424 0.273625
0.223801 0.233457 0.251469
1.000000 0.221233 0.230496
1.000000 0.222174 0.223680
0.000000 0.306661 0.274877
0.003836 0.426303 0.285809
0.211657 1.000000 0.255393
1.000000 1.000000 0.248976
1.000000 1.000000 0.241490
0.000000 1.000000 0.290981
0.003102 1.000000 0.303833
0.201010 1.000000 0.269276
1.000000 1.000000 0.267929
1.000000 1.000000 0.266664
0.000000 0.000000 0.360481
0.006188 0.000000 0.403225
0.145860 0.000000 0.492771
0.385109 0.000000 0.505197
1.000000 0.000000 0.482052
0.000000 0.008801 0.491708
0.004997 0.011241 0.556656
0.190980 0.010604 1.000000
0.580850 0.008641 1.000000
1.000000 0.008885 1.000000
0.000000 0.131178 1.000000
0.003683 0.172528 1.000000
0.199529 0.224036 1.000000
1.000000 0.223466 1.000000
1.000000 0.223407 1.000000
0.000000 0.305743 1.000000
0.003578 0.430956 1.000000
0.195451 1.000000 1.000000
1.000000 1.000000 1.000000
1.000000 1.000000 1.000000
0.000000 1.000000 1.000000
0.003080 1.000000 1.000000
0.188342 1.000000 1.000000
1.000000 1.000000 1.000000
1.000000 1.000000 1.000000
0.000000 0.000000 1.000000
0.007085 0.000000 1.000000
0.166077 0.000000 1.000000
0.458870 0.000000 1.000000
1.000000 0.000000 1.000000
0.000000 0.011844 1.000000
0.003278 0.016631 1.000000
0.186627 0.019543 1.000000
0.645204 0.017780 1.000000
1.000000 0.020463 1.000000
0.000000 0.127762 1.000000
0.003023 0.170779 1.000000
0.187039 0.221645 1.000000
1.000000 0.227928 1.000000
1.000000 0.230755 1.000000
0.000000 0.294776 1.000000
0.002957 0.411219 1.000000
0.185641 1.000000 1.000000
1.000000 1.000000 1.000000
1.000000 1.000000 1.000000
0.000000 1.000000 1.000000
0.002919 1.000000 1.000000
0.184036 1.000000 1.000000
0.808587 1.000000 1.000000
1.000000 1.000000 1.000000
