WanderingClouds/Assets/WanderingCloud/GameArt/DraftClement/YS_Cube.CUBE
#Created by: Adobe Photoshop Export Color Lookup Plugin
TITLE "YS_ModifCube.psd"
#LUT size
LUT_3D_SIZE 8
#data domain
#LUT data points
DOMAIN_MIN 0.000000 0.000000 0.000000
DOMAIN_MAX 0.903226 0.903226 0.903226
0.000000 0.000464 0.000000
0.008508 0.000000 0.000000
0.043679 0.000000 0.000000
0.190315 0.000000 0.000000
0.453656 0.000000 0.000000
0.690254 0.000000 0.000000
0.883031 0.000000 0.000000
1.000000 0.000000 0.000000
0.000000 0.009820 0.000000
0.008582 0.010030 0.000000
0.049020 0.008949 0.000000
0.225963 0.005440 0.000000
0.515960 0.003506 0.000000
0.755221 0.002445 0.000000
0.946702 0.001679 0.000000
1.000000 0.001051 0.000000
0.000000 0.044666 0.000000
0.006640 0.047852 0.000000
0.059282 0.059389 0.000000
0.295880 0.055268 0.000000
0.640788 0.041541 0.000000
0.893356 0.032368 0.000000
1.000000 0.032583 0.000000
1.000000 0.033903 0.000000
0.000000 0.162002 0.000000
0.005015 0.177799 0.000000
0.051794 0.244696 0.000000
0.373932 0.289340 0.000000
0.772661 0.277480 0.000000
1.000000 0.260967 0.000000
1.000000 0.261711 0.000000
1.000000 0.263579 0.000000
0.000000 0.361037 0.000000
0.003687 0.397426 0.000000
0.030976 0.534279 0.000000
0.407310 0.652756 0.000000
0.861052 0.681514 0.000000
1.000000 0.666647 0.000000
1.000000 0.660399 0.000000
1.000000 0.657114 0.000000
0.000000 0.547186 0.000000
0.002784 0.602563 0.000000
0.024139 0.768203 0.000000
0.406495 0.912269 0.000000
0.891636 0.979481 0.000000
1.000000 0.972830 0.000000
1.000000 0.967658 0.000000
1.000000 0.967847 0.000000
0.000000 0.729975 0.000000
0.001996 0.809601 0.000000
0.034613 0.974276 0.000000
0.410820 1.000000 0.000000
0.887275 1.000000 0.000000
1.000000 1.000000 0.000000
1.000000 1.000000 0.000000
1.000000 1.000000 0.000000
0.000000 0.912124 0.000000
0.001286 1.000000 0.000000
0.051054 1.000000 0.000000
0.417191 1.000000 0.000000
0.877900 1.000000 0.000000
1.000000 1.000000 0.000000
1.000000 1.000000 0.000000
1.000000 1.000000 0.000000
0.000000 0.000000 0.012097
0.008506 0.000000 0.012268
0.045122 0.000000 0.009586
0.199839 0.000000 0.006228
0.469760 0.000000 0.004043
0.707507 0.000000 0.002685
0.900692 0.000000 0.001717
1.000000 0.000000 0.000938
0.000000 0.009903 0.012543
0.007595 0.009089 0.011177
0.047418 0.008100 0.008375
0.227232 0.004753 0.004843
0.520034 0.002689 0.002740
0.759708 0.001665 0.001477
0.951021 0.000917 0.000558
1.000000 0.000298 0.000000
0.000000 0.046665 0.011420
0.005774 0.046980 0.010029
0.057352 0.059248 0.008353
0.299368 0.055888 0.004190
0.648868 0.042365 0.002038
0.901859 0.033745 0.000790
1.000000 0.034280 0.000000
1.000000 0.035994 0.000000
0.000000 0.172464 0.008286
0.004164 0.181338 0.006549
0.047061 0.254731 0.004886
0.378455 0.303547 0.003618
0.782464 0.291097 0.001365
1.000000 0.274305 0.000111
1.000000 0.276158 0.000000
1.000000 0.278898 0.000000
0.000000 0.380074 0.005411
0.002880 0.405916 0.003940
0.025071 0.550334 0.002957
0.407083 0.673186 0.002321
0.869149 0.704449 0.000946
1.000000 0.690199 0.000000
1.000000 0.686440 0.000000
1.000000 0.686116 0.000000
0.000000 0.568146 0.004376
0.002020 0.609741 0.002985
0.019991 0.781151 0.001799
0.401425 0.929301 0.001115
0.894380 0.998262 0.000803
1.000000 0.995868 0.000000
1.000000 1.000000 0.000000
1.000000 1.000000 0.000000
0.000000 0.755364 0.006305
0.001241 0.820241 0.003565
0.021426 0.991154 0.001354
0.396326 1.000000 0.000262
0.880577 1.000000 0.000000
1.000000 1.000000 0.000000
1.000000 1.000000 0.000000
1.000000 1.000000 0.000000
0.000000 0.941459 0.011645
0.000530 1.000000 0.007885
0.029240 1.000000 0.000966
0.394267 1.000000 0.000000
0.862989 1.000000 0.000000
1.000000 1.000000 0.000000
1.000000 1.000000 0.000000
1.000000 1.000000 0.000000
0.000000 0.000000 0.071016
0.006860 0.000000 0.073324
0.046006 0.000000 0.078940
0.207169 0.000000 0.066359
0.486201 0.000000 0.051129
0.727724 0.000000 0.041563
0.922145 0.000000 0.038066
1.000000 0.000000 0.036549
0.000000 0.008058 0.078253
0.005751 0.007476 0.075099
0.047676 0.008119 0.080232
0.235752 0.004811 0.066962
0.539635 0.002601 0.051098
0.783153 0.001571 0.041974
0.974491 0.000834 0.039194
1.000000 0.000220 0.037840
0.000000 0.049587 0.096973
0.005474 0.049852 0.093928
0.046929 0.058385 0.087915
0.282929 0.055196 0.068850
0.635207 0.043861 0.051621
0.889510 0.036579 0.043177
1.000000 0.037516 0.040153
1.000000 0.038847 0.038518
0.000000 0.190674 0.104443
0.004028 0.199900 0.100281
0.026000 0.269173 0.089213
0.349370 0.320241 0.068870
0.762849 0.312316 0.044042
1.000000 0.296993 0.033779
1.000000 0.299083 0.030439
1.000000 0.303565 0.029573
0.000000 0.413332 0.103072
0.002722 0.440571 0.097567
0.017680 0.574369 0.080689
0.360448 0.706354 0.049100
0.845731 0.755624 0.024888
1.000000 0.741157 0.019816
1.000000 0.736574 0.017793
1.000000 0.738814 0.016777
0.000000 0.606707 0.110446
0.001865 0.650036 0.105020
0.015473 0.806666 0.086763
0.342838 0.961287 0.053581
0.852502 1.000000 0.027619
1.000000 1.000000 0.021215
1.000000 1.000000 0.019702
1.000000 1.000000 0.018916
0.000000 0.794482 0.137868
0.001102 0.859436 0.134453
0.014588 1.000000 0.118093
0.323971 1.000000 0.087379
0.814088 1.000000 0.067502
1.000000 1.000000 0.056765
1.000000 1.000000 0.052639
1.000000 1.000000 0.053598
0.000000 0.978896 0.161608
0.000405 1.000000 0.160393
0.013506 1.000000 0.145590
0.316729 1.000000 0.115379
0.784242 1.000000 0.101247
1.000000 1.000000 0.093763
1.000000 1.000000 0.093758
1.000000 1.000000 0.093858
0.000000 0.000000 0.257154
0.005038 0.000000 0.265862
0.038702 0.000000 0.292667
0.211556 0.000000 0.307807
0.496250 0.000000 0.286021
0.739244 0.000000 0.268519
0.933733 0.000000 0.260991
1.000000 0.000000 0.254864
0.000000 0.005847 0.283768
0.004136 0.005099 0.281543
0.042927 0.005016 0.312168
0.243503 0.004323 0.327296
0.552235 0.002542 0.303216
0.796648 0.001517 0.285721
0.988832 0.000774 0.279373
1.000000 0.000162 0.274486
0.000000 0.045181 0.347229
0.003790 0.045370 0.347882
0.035135 0.056396 0.358854
0.284270 0.059559 0.367109
0.641885 0.047425 0.339136
0.897730 0.039970 0.320434
1.000000 0.041003 0.311677
1.000000 0.042680 0.305573
0.000000 0.202411 0.409128
0.003491 0.213031 0.411961
0.020157 0.296757 0.432511
0.304495 0.324522 0.392357
0.711464 0.312152 0.355125
0.979063 0.294506 0.332577
1.000000 0.296512 0.322188
1.000000 0.300762 0.316154
0.000000 0.445220 0.433202
0.002579 0.473088 0.434893
0.015055 0.613274 0.442171
0.288435 0.708142 0.388716
0.768266 0.754919 0.372693
1.000000 0.740355 0.346752
1.000000 0.732954 0.334352
1.000000 0.731523 0.330158
0.000000 0.641705 0.445690
0.001732 0.685140 0.448595
0.013104 0.847257 0.454210
0.266633 0.962295 0.395090
0.762269 1.000000 0.384117
1.000000 1.000000 0.368498
1.000000 1.000000 0.355492
1.000000 1.000000 0.351647
0.000000 0.826978 0.476061
0.000988 0.891906 0.484298
0.012897 1.000000 0.487392
0.256201 1.000000 0.427293
0.735636 1.000000 0.419795
1.000000 1.000000 0.413307
1.000000 1.000000 0.404227
1.000000 1.000000 0.399419
0.000000 1.000000 0.496702
0.000302 1.000000 0.508060
0.012142 1.000000 0.509107
0.257543 1.000000 0.449187
0.714627 1.000000 0.443636
1.000000 1.000000 0.438858
1.000000 1.000000 0.437890
1.000000 1.000000 0.436647
0.000000 0.000000 0.509240
0.003787 0.000000 0.522257
0.030006 0.000000 0.565780
0.198232 0.000000 0.602160
0.500471 0.000000 0.607806
0.746057 0.000000 0.591090
0.941563 0.000000 0.582943
1.000000 0.000000 0.574613
0.000000 0.004384 0.553479
0.002893 0.003658 0.553133
0.034876 0.003506 0.602727
0.231966 0.003181 0.642955
0.559952 0.002507 0.645502
0.807182 0.001476 0.628224
1.000000 0.000728 0.621177
1.000000 0.000106 0.615314
0.000000 0.039253 0.645970
0.002505 0.039386 0.649879
0.026786 0.051843 0.678249
0.270441 0.055312 0.712105
0.649115 0.047865 0.713016
0.907878 0.040006 0.694104
1.000000 0.041684 0.683908
1.000000 0.043810 0.675744
0.000000 0.193660 0.731462
0.002166 0.203666 0.738226
0.015923 0.284923 0.779198
0.269539 0.318241 0.756215
0.696858 0.322348 0.750758
0.967728 0.303809 0.727875
1.000000 0.304597 0.714014
1.000000 0.308698 0.704428
0.000000 0.449455 0.779711
0.001974 0.478649 0.788868
0.013853 0.628600 0.828227
0.257172 0.732696 0.793969
0.716659 0.750395 0.765822
1.000000 0.734785 0.740382
1.000000 0.726659 0.725276
1.000000 0.724496 0.717384
0.000000 0.661614 0.800109
0.001658 0.705116 0.810209
0.012388 0.866743 0.836174
0.234666 0.992923 0.796507
0.704206 1.000000 0.768544
1.000000 1.000000 0.761076
1.000000 1.000000 0.744371
1.000000 1.000000 0.737315
0.000000 0.845492 0.813483
0.000927 0.909519 0.828461
0.011651 1.000000 0.849054
0.230202 1.000000 0.807748
0.682375 1.000000 0.778961
1.000000 1.000000 0.778381
1.000000 1.000000 0.771156
1.000000 1.000000 0.763445
0.000000 1.000000 0.821099
0.000248 1.000000 0.839313
0.011143 1.000000 0.854627
0.235577 1.000000 0.809774
0.665895 1.000000 0.782542
0.986728 1.000000 0.783197
1.000000 1.000000 0.782653
1.000000 1.000000 0.780936
0.000000 0.000000 0.733375
0.002870 0.000000 0.747425
0.024533 0.000000 0.798844
0.189055 0.000000 0.844053
0.499880 0.000000 0.866077
0.757083 0.000000 0.863299
0.952955 0.000000 0.854951
1.000000 0.000000 0.846282
0.000000 0.003359 0.788453
0.001969 0.002691 0.790326
0.030439 0.002554 0.847024
0.224381 0.002197 0.897045
0.565318 0.002044 0.918272
0.823012 0.001413 0.911559
1.000000 0.000667 0.905431
1.000000 0.000054 0.899016
0.000000 0.035998 0.884169
0.001596 0.036224 0.890144
0.021684 0.049820 0.926504
0.256016 0.052428 0.966071
0.647143 0.048206 0.988793
0.916126 0.041746 0.980082
1.000000 0.043424 0.970051
1.000000 0.046140 0.961115
0.000000 0.184818 0.971698
0.001259 0.194221 0.980407
0.013551 0.272738 1.000000
0.246803 0.307692 1.000000
0.684657 0.322676 1.000000
0.966495 0.309285 1.000000
1.000000 0.309349 1.000000
1.000000 0.313697 0.996511
0.000000 0.437240 1.000000
0.001066 0.465647 1.000000
0.012059 0.611016 1.000000
0.233816 0.728751 1.000000
0.685513 0.738593 1.000000
0.983178 0.730237 1.000000
1.000000 0.721272 1.000000
1.000000 0.717948 0.999744
0.000000 0.651901 1.000000
0.000989 0.697426 1.000000
0.011938 0.866789 1.000000
0.217925 1.000000 1.000000
0.676985 1.000000 1.000000
0.986990 1.000000 1.000000
1.000000 1.000000 1.000000
1.000000 1.000000 1.000000
0.000000 0.849509 1.000000
0.000905 0.915909 1.000000
0.011401 1.000000 1.000000
0.214680 1.000000 1.000000
0.658347 1.000000 1.000000
0.974248 1.000000 1.000000
1.000000 1.000000 1.000000
1.000000 1.000000 1.000000
0.000000 1.000000 1.000000
0.000229 1.000000 1.000000
0.010538 1.000000 1.000000
0.222641 1.000000 1.000000
0.644509 1.000000 1.000000
0.957776 1.000000 1.000000
1.000000 1.000000 1.000000
1.000000 1.000000 1.000000
0.000000 0.000000 0.935326
0.002082 0.000000 0.952381
0.026389 0.000000 1.000000
0.201513 0.000000 1.000000
0.524034 0.000000 1.000000
0.794530 0.000000 1.000000
0.994229 0.000000 1.000000
1.000000 0.000000 1.000000
0.000000 0.002739 0.993169
0.001193 0.002219 0.998110
0.031851 0.003053 1.000000
0.235792 0.002499 1.000000
0.588453 0.001626 1.000000
0.862902 0.001558 1.000000
1.000000 0.000997 1.000000
1.000000 0.000454 1.000000
0.000000 0.039361 1.000000
0.000881 0.040412 1.000000
0.016543 0.057565 1.000000
0.245715 0.061047 1.000000
0.638246 0.058454 1.000000
0.926006 0.055517 1.000000
1.000000 0.056877 1.000000
1.000000 0.059762 1.000000
0.000000 0.183296 1.000000
0.000585 0.194238 1.000000
0.011995 0.272914 1.000000
0.232549 0.310673 1.000000
0.665589 0.324550 1.000000
0.966757 0.323633 1.000000
1.000000 0.323269 1.000000
1.000000 0.326625 1.000000
0.000000 0.427021 1.000000
0.000406 0.457569 1.000000
0.010884 0.599501 1.000000
0.217515 0.716132 1.000000
0.662389 0.724411 1.000000
0.979689 0.733581 1.000000
1.000000 0.724430 1.000000
1.000000 0.721747 1.000000
0.000000 0.639857 1.000000
0.000338 0.687588 1.000000
0.010781 0.853081 1.000000
0.205502 0.998515 1.000000
0.664769 1.000000 1.000000
0.969979 1.000000 1.000000
1.000000 1.000000 1.000000
1.000000 0.997299 1.000000
0.000000 0.837879 1.000000
0.000276 0.905233 1.000000
0.010912 1.000000 1.000000
0.207651 1.000000 1.000000
0.650991 1.000000 1.000000
0.953033 1.000000 1.000000
1.000000 1.000000 1.000000
1.000000 1.000000 1.000000
0.000000 1.000000 1.000000
0.000212 1.000000 1.000000
0.010469 1.000000 1.000000
0.214724 1.000000 1.000000
0.636920 1.000000 1.000000
0.937430 1.000000 1.000000
1.000000 1.000000 1.000000
1.000000 1.000000 1.000000
0.000000 0.000000 1.000000
0.001377 0.000000 1.000000
0.031410 0.000000 1.000000
0.220108 0.000000 1.000000
0.556548 0.000000 1.000000
0.829551 0.000000 1.000000
1.000000 0.000000 1.000000
1.000000 0.000000 1.000000
0.000000 0.002931 1.000000
0.000520 0.003212 1.000000
0.027935 0.006621 1.000000
0.238297 0.006689 1.000000
0.610071 0.003391 1.000000
0.895126 0.001104 1.000000
1.000000 0.002206 1.000000
1.000000 0.004264 1.000000
0.000000 0.044131 1.000000
0.000255 0.046284 1.000000
0.013316 0.067458 1.000000
0.237256 0.073228 1.000000
0.632415 0.072764 1.000000
0.922481 0.070410 1.000000
1.000000 0.075963 1.000000
1.000000 0.079129 1.000000
0.000000 0.184735 1.000000
0.000001 0.198084 1.000000
0.010901 0.279163 1.000000
0.222456 0.320383 1.000000
0.651424 0.334740 1.000000
0.954857 0.333973 1.000000
1.000000 0.343455 1.000000
1.000000 0.346471 1.000000
0.000000 0.418939 1.000000
0.000000 0.452333 1.000000
0.009932 0.593076 1.000000
0.207605 0.707305 1.000000
0.645278 0.714815 1.000000
0.963939 0.724863 1.000000
1.000000 0.729003 1.000000
1.000000 0.726391 1.000000
0.000000 0.628485 1.000000
0.000000 0.678963 1.000000
0.009845 0.842268 1.000000
0.196264 0.984405 1.000000
0.647203 1.000000 1.000000
0.953453 1.000000 1.000000
1.000000 1.000000 1.000000
1.000000 0.996706 1.000000
0.000000 0.826518 1.000000
0.000000 0.896429 1.000000
0.009972 1.000000 1.000000
0.201262 1.000000 1.000000
0.643362 1.000000 1.000000
0.948347 1.000000 1.000000
1.000000 1.000000 1.000000
1.000000 1.000000 1.000000
0.000000 1.000000 1.000000
0.000000 1.000000 1.000000
0.010208 1.000000 1.000000
0.212047 1.000000 1.000000
0.632562 1.000000 1.000000
0.934228 1.000000 1.000000
1.000000 1.000000 1.000000
1.000000 1.000000 1.000000
