WanderingClouds/Assets/WanderingCloud/GameArt/DraftClement/YS_Cube.CUBE
#Created by: Adobe Photoshop Export Color Lookup Plugin
TITLE "YS_ModifCube.psd"
#LUT size
LUT_3D_SIZE 5
#data domain
#LUT data points
DOMAIN_MIN 0.000000 0.000000 0.000000
DOMAIN_MAX 0.903226 0.903226 0.903226
0.000000 0.000464 0.000000
0.029487 0.000000 0.000000
0.318112 0.000000 0.000000
0.742374 0.000000 0.000000
1.000000 0.000000 0.000000
0.000000 0.031390 0.000000
0.036141 0.038477 0.000000
0.447818 0.027313 0.000000
0.908341 0.017195 0.000000
1.000000 0.017066 0.000000
0.000000 0.257955 0.000000
0.020472 0.359742 0.000000
0.632154 0.486114 0.000000
1.000000 0.460306 0.000000
1.000000 0.460699 0.000000
0.000000 0.591390 0.000000
0.013637 0.772715 0.000000
0.669324 1.000000 0.000000
1.000000 1.000000 0.000000
1.000000 1.000000 0.000000
0.000000 0.912124 0.000000
0.022377 1.000000 0.000000
0.662622 1.000000 0.000000
1.000000 1.000000 0.000000
1.000000 1.000000 0.000000
0.000000 0.000000 0.047372
0.030516 0.000000 0.051056
0.341624 0.000000 0.032428
0.775575 0.000000 0.021873
1.000000 0.000000 0.019074
0.000000 0.033672 0.060198
0.029166 0.036671 0.053859
0.445370 0.027981 0.029996
0.911445 0.017893 0.020353
1.000000 0.017730 0.017735
0.000000 0.293846 0.060773
0.012046 0.386557 0.047114
0.625141 0.537153 0.019598
1.000000 0.513248 0.010701
1.000000 0.517000 0.009091
0.000000 0.642133 0.065144
0.009327 0.801326 0.047464
0.630339 1.000000 0.020069
1.000000 1.000000 0.010778
1.000000 1.000000 0.010522
0.000000 0.969704 0.101289
0.007471 1.000000 0.089179
0.586406 1.000000 0.049180
1.000000 1.000000 0.035296
1.000000 1.000000 0.035099
0.000000 0.000000 0.382795
0.020365 0.000000 0.420802
0.354003 0.000000 0.458647
0.795761 0.000000 0.427497
1.000000 0.000000 0.414345
0.000000 0.025641 0.478737
0.017179 0.030931 0.497250
0.460911 0.027940 0.532299
0.933779 0.019078 0.498638
1.000000 0.019358 0.487076
0.000000 0.326265 0.603977
0.011359 0.429469 0.634652
0.523803 0.545974 0.586519
1.000000 0.517851 0.539217
1.000000 0.520035 0.523531
0.000000 0.698894 0.637279
0.009009 0.859378 0.659510
0.495572 1.000000 0.595198
1.000000 1.000000 0.581009
1.000000 1.000000 0.564217
0.000000 1.000000 0.669609
0.007242 1.000000 0.693786
0.470598 1.000000 0.625466
1.000000 1.000000 0.622588
1.000000 1.000000 0.619815
0.000000 0.000000 0.783742
0.014467 0.000000 0.835968
0.341516 0.000000 0.911257
0.815334 0.000000 0.918794
1.000000 0.000000 0.904254
0.000000 0.020620 0.910589
0.011697 0.026315 0.944244
0.447105 0.024808 1.000000
0.953489 0.020212 1.000000
1.000000 0.020822 1.000000
0.000000 0.307095 1.000000
0.008601 0.403923 1.000000
0.467135 0.524366 1.000000
1.000000 0.523042 1.000000
1.000000 0.522916 1.000000
0.000000 0.697241 1.000000
0.008377 0.863703 1.000000
0.457614 1.000000 1.000000
1.000000 1.000000 1.000000
1.000000 1.000000 1.000000
0.000000 1.000000 1.000000
0.007197 1.000000 1.000000
0.440953 1.000000 1.000000
1.000000 1.000000 1.000000
1.000000 1.000000 1.000000
0.000000 0.000000 1.000000
0.016612 0.000000 1.000000
0.388836 0.000000 1.000000
0.887413 0.000000 1.000000
1.000000 0.000000 1.000000
0.000000 0.027717 1.000000
0.007682 0.038938 1.000000
0.436963 0.045767 1.000000
0.971673 0.041635 1.000000
1.000000 0.047895 1.000000
0.000000 0.299114 1.000000
0.007084 0.399827 1.000000
0.437899 0.518852 1.000000
1.000000 0.533344 1.000000
1.000000 0.539817 1.000000
0.000000 0.676893 1.000000
0.006910 0.844416 1.000000
0.434636 1.000000 1.000000
1.000000 1.000000 1.000000
1.000000 1.000000 1.000000
0.000000 1.000000 1.000000
0.006814 1.000000 1.000000
0.430868 1.000000 1.000000
0.992759 1.000000 1.000000
1.000000 1.000000 1.000000
