WanderingClouds/Assets/WanderingCloud/GameArt/DraftClement/YS_Cube_Frame_Modif.CUBE
#Created by: Adobe Photoshop Export Color Lookup Plugin
TITLE "YS_Cube_Frame_Modif.psd"
#LUT size
LUT_3D_SIZE 8
#data domain
#LUT data points
DOMAIN_MIN 0.000000 0.000000 0.000000
DOMAIN_MAX 0.903226 0.903226 0.903226
0.000000 0.000202 0.000000
0.003644 0.000000 0.000000
0.018666 0.000000 0.000000
0.081286 0.000000 0.000000
0.193772 0.000000 0.000000
0.301914 0.000000 0.000000
0.453337 0.000000 0.000000
1.000000 0.000000 0.000000
0.000000 0.004201 0.000000
0.003676 0.004282 0.000000
0.020940 0.003814 0.000000
0.096516 0.002323 0.000000
0.220401 0.001498 0.000000
0.340696 0.001040 0.000000
0.562709 0.000721 0.000000
1.000000 0.000455 0.000000
0.000000 0.019069 0.000000
0.002832 0.020447 0.000000
0.025313 0.025361 0.000000
0.126366 0.023606 0.000000
0.276571 0.017745 0.000000
0.466676 0.013817 0.000000
1.000000 0.013911 0.000000
1.000000 0.014484 0.000000
0.000000 0.069191 0.000000
0.002141 0.075952 0.000000
0.022113 0.104517 0.000000
0.159714 0.123582 0.000000
0.352542 0.118520 0.000000
1.000000 0.111471 0.000000
1.000000 0.111783 0.000000
1.000000 0.112575 0.000000
0.000000 0.154213 0.000000
0.001569 0.169752 0.000000
0.013233 0.228339 0.000000
0.173982 0.282433 0.000000
0.428095 0.297209 0.000000
1.000000 0.289439 0.000000
1.000000 0.286254 0.000000
1.000000 0.284612 0.000000
0.000000 0.233981 0.000000
0.001197 0.258737 0.000000
0.010303 0.349451 0.000000
0.173615 0.494380 0.000000
0.464372 0.685725 0.000000
1.000000 0.650491 0.000000
1.000000 0.628245 0.000000
1.000000 0.628987 0.000000
0.000000 0.324734 0.000000
0.000845 0.380394 0.000000
0.014780 0.657430 0.000000
0.175472 1.000000 0.000000
0.458681 1.000000 0.000000
1.000000 1.000000 0.000000
1.000000 1.000000 0.000000
1.000000 1.000000 0.000000
0.000000 0.494163 0.000000
0.000552 1.000000 0.000000
0.021804 1.000000 0.000000
0.178200 1.000000 0.000000
0.447107 1.000000 0.000000
1.000000 1.000000 0.000000
1.000000 1.000000 0.000000
1.000000 1.000000 0.000000
0.000000 0.000000 0.005163
0.003643 0.000000 0.005241
0.019271 0.000000 0.004091
0.085363 0.000000 0.002656
0.200639 0.000000 0.001730
0.311516 0.000000 0.001160
0.476854 0.000000 0.000735
1.000000 0.000000 0.000408
0.000000 0.004232 0.005356
0.003245 0.003873 0.004771
0.020254 0.003465 0.003577
0.097053 0.002026 0.002060
0.222174 0.001161 0.001180
0.343684 0.000716 0.000645
0.573988 0.000398 0.000240
1.000000 0.000119 0.000000
0.000000 0.019941 0.004886
0.002471 0.020059 0.004282
0.024498 0.025300 0.003566
0.127864 0.023857 0.001790
0.280519 0.018100 0.000866
0.478550 0.014425 0.000334
1.000000 0.014637 0.000000
1.000000 0.015373 0.000000
0.000000 0.073659 0.003535
0.001777 0.077455 0.002792
0.020089 0.108799 0.002077
0.161640 0.129648 0.001540
0.359553 0.124328 0.000591
1.000000 0.117164 0.000042
1.000000 0.117963 0.000000
1.000000 0.119124 0.000000
0.000000 0.162334 0.002309
0.001233 0.173367 0.001691
0.010714 0.235367 0.001261
0.173878 0.292831 0.000992
0.436960 0.309775 0.000412
1.000000 0.301886 0.000000
1.000000 0.299854 0.000000
1.000000 0.299672 0.000000
0.000000 0.243241 0.001883
0.000857 0.262024 0.001272
0.008534 0.358599 0.000766
0.171469 0.524374 0.000479
0.468054 0.934630 0.000341
1.000000 0.866744 0.000000
1.000000 1.000000 0.000000
1.000000 1.000000 0.000000
0.000000 0.340786 0.002695
0.000529 0.389250 0.001520
0.009157 0.786144 0.000586
0.169282 1.000000 0.000101
0.450330 1.000000 0.000000
1.000000 1.000000 0.000000
1.000000 1.000000 0.000000
1.000000 1.000000 0.000000
0.000000 0.550083 0.004977
0.000229 1.000000 0.003363
0.012491 1.000000 0.000422
0.168388 1.000000 0.000000
0.430182 1.000000 0.000000
1.000000 1.000000 0.000000
1.000000 1.000000 0.000000
1.000000 1.000000 0.000000
0.000000 0.000000 0.030324
0.002939 0.000000 0.031321
0.019646 0.000000 0.033722
0.088492 0.000000 0.028333
0.207670 0.000000 0.021841
0.323358 0.000000 0.017753
0.511062 0.000000 0.016258
1.000000 0.000000 0.015620
0.000000 0.003449 0.033420
0.002462 0.003200 0.032068
0.020359 0.003472 0.034268
0.100694 0.002048 0.028598
0.230683 0.001117 0.021826
0.360040 0.000681 0.017935
0.658479 0.000356 0.016742
1.000000 0.000083 0.016174
0.000000 0.021189 0.041431
0.002340 0.021288 0.040128
0.020040 0.024946 0.037549
0.120838 0.023570 0.029420
0.273878 0.018737 0.022044
0.461571 0.015635 0.018445
1.000000 0.016022 0.017147
1.000000 0.016586 0.016451
0.000000 0.081451 0.044598
0.001724 0.085393 0.042824
0.011108 0.114978 0.038106
0.149233 0.136784 0.029427
0.345788 0.133392 0.018804
1.000000 0.126845 0.014437
1.000000 0.127751 0.013001
1.000000 0.129657 0.012620
0.000000 0.176545 0.044023
0.001173 0.188181 0.041673
0.007546 0.246017 0.034470
0.153948 0.310856 0.020976
0.412473 0.340979 0.010643
1.000000 0.331632 0.008469
1.000000 0.328767 0.007588
1.000000 0.330167 0.007168
0.000000 0.260629 0.047167
0.000791 0.281087 0.044850
0.006607 0.378013 0.037053
0.146425 0.604968 0.022884
0.419213 1.000000 0.011795
1.000000 1.000000 0.009054
1.000000 1.000000 0.008417
1.000000 1.000000 0.008084
0.000000 0.368475 0.058894
0.000474 0.426368 0.057430
0.006233 1.000000 0.050441
0.138365 1.000000 0.037314
0.384080 1.000000 0.028838
1.000000 1.000000 0.024247
1.000000 1.000000 0.022486
1.000000 1.000000 0.022893
0.000000 0.682230 0.069026
0.000172 1.000000 0.068509
0.005767 1.000000 0.062195
0.135283 1.000000 0.049279
0.360825 1.000000 0.043247
1.000000 1.000000 0.040045
1.000000 1.000000 0.040043
1.000000 1.000000 0.040093
0.000000 0.000000 0.109839
0.002153 0.000000 0.113553
0.016527 0.000000 0.125009
0.090366 0.000000 0.131473
0.211961 0.000000 0.122167
0.330436 0.000000 0.114698
0.533238 0.000000 0.111483
1.000000 0.000000 0.108849
0.000000 0.002498 0.121214
0.001765 0.002183 0.120257
0.018325 0.002142 0.133329
0.104009 0.001856 0.139795
0.236201 0.001088 0.129513
0.370160 0.000661 0.122038
0.759203 0.000326 0.119322
1.000000 0.000061 0.117245
0.000000 0.019295 0.148308
0.001621 0.019389 0.148583
0.015007 0.024078 0.153278
0.121413 0.025446 0.156800
0.277089 0.020256 0.144849
0.472661 0.017064 0.136871
1.000000 0.017512 0.133133
1.000000 0.018233 0.130520
0.000000 0.086463 0.174748
0.001492 0.090995 0.175951
0.008614 0.126756 0.184731
0.130055 0.138610 0.167584
0.313775 0.133323 0.151683
0.683219 0.125790 0.142051
1.000000 0.126650 0.137605
1.000000 0.128469 0.135037
0.000000 0.190170 0.185034
0.001106 0.202066 0.185760
0.006429 0.263637 0.188859
0.123191 0.311882 0.166032
0.349490 0.340507 0.159186
1.000000 0.331130 0.148107
1.000000 0.326535 0.142808
1.000000 0.325671 0.141021
0.000000 0.277016 0.190358
0.000741 0.299143 0.191600
0.005606 0.413969 0.194010
0.113877 0.608390 0.168758
0.345406 1.000000 0.164064
1.000000 1.000000 0.157394
1.000000 1.000000 0.151836
1.000000 1.000000 0.150189
0.000000 0.395115 0.203334
0.000432 0.464737 0.206850
0.005508 1.000000 0.208174
0.109424 1.000000 0.182513
0.328211 1.000000 0.179304
1.000000 1.000000 0.176535
1.000000 1.000000 0.172664
1.000000 1.000000 0.170596
0.000000 1.000000 0.212157
0.000121 1.000000 0.217012
0.005186 1.000000 0.217466
0.110007 1.000000 0.191852
0.315600 1.000000 0.189496
1.000000 1.000000 0.187447
1.000000 1.000000 0.187036
1.000000 1.000000 0.186509
0.000000 0.000000 0.217515
0.001619 0.000000 0.223129
0.012809 0.000000 0.242180
0.084681 0.000000 0.258555
0.213767 0.000000 0.261130
0.334755 0.000000 0.253522
0.550329 0.000000 0.249854
1.000000 0.000000 0.246119
0.000000 0.001887 0.236760
0.001237 0.001555 0.236600
0.014905 0.001498 0.258799
0.099076 0.001346 0.277624
0.239601 0.001071 0.278867
0.378434 0.000645 0.270563
1.000000 0.000304 0.267284
1.000000 0.000040 0.264566
0.000000 0.016765 0.279101
0.001069 0.016824 0.281025
0.011440 0.022137 0.295484
0.115514 0.023628 0.314145
0.280643 0.020452 0.314668
0.487509 0.017077 0.304022
1.000000 0.017798 0.298497
1.000000 0.018718 0.294171
0.000000 0.082724 0.325633
0.000930 0.086995 0.329799
0.006802 0.121708 0.357177
0.115116 0.135927 0.341348
0.305532 0.137675 0.337784
0.628518 0.129767 0.323452
1.000000 0.130093 0.315247
1.000000 0.131844 0.309764
0.000000 0.191982 0.357549
0.000835 0.204443 0.364264
0.005919 0.270751 0.396207
0.109848 0.326401 0.368090
0.316795 0.337546 0.347810
1.000000 0.327679 0.331147
1.000000 0.322723 0.321889
1.000000 0.321432 0.317219
0.000000 0.286892 0.372825
0.000713 0.310143 0.380880
0.005286 0.434283 0.403405
0.100237 0.811084 0.370039
0.309635 1.000000 0.349693
1.000000 1.000000 0.344599
1.000000 1.000000 0.333671
1.000000 1.000000 0.329230
0.000000 0.412260 0.383580
0.000402 0.490041 0.396412
0.004979 1.000000 0.415765
0.098319 1.000000 0.378882
0.297670 1.000000 0.357018
1.000000 1.000000 0.356605
1.000000 1.000000 0.351499
1.000000 1.000000 0.346202
0.000000 1.000000 0.390001
0.000093 1.000000 0.406335
0.004759 1.000000 0.421369
0.100610 1.000000 0.380524
0.289063 1.000000 0.359603
0.738780 1.000000 0.360072
1.000000 1.000000 0.359672
1.000000 1.000000 0.358437
0.000000 0.000000 0.326798
0.001229 0.000000 0.335640
0.010482 0.000000 0.371838
0.080753 0.000000 0.410856
0.213517 0.000000 0.433534
0.341921 0.000000 0.430501
0.579336 0.000000 0.421693
1.000000 0.000000 0.413024
0.000000 0.001435 0.363954
0.000832 0.001162 0.365358
0.013001 0.001094 0.413753
0.095833 0.000946 0.471718
0.241979 0.000869 0.504307
0.391644 0.000615 0.493246
1.000000 0.000281 0.483787
1.000000 0.000020 0.474470
0.000000 0.015374 0.454760
0.000690 0.015476 0.462412
0.009261 0.021276 0.519025
0.109342 0.022400 0.622065
0.279657 0.020593 0.758790
0.500682 0.017821 0.689414
1.000000 0.018542 0.638099
1.000000 0.019713 0.604388
0.000000 0.078950 0.645317
0.000538 0.082965 0.691445
0.005783 0.116498 1.000000
0.105427 0.131415 1.000000
0.298882 0.137819 1.000000
0.623706 0.132095 1.000000
1.000000 0.132122 1.000000
1.000000 0.133991 0.882435
0.000000 0.186760 1.000000
0.000461 0.198888 1.000000
0.005145 0.262600 1.000000
0.099858 0.324000 1.000000
0.299356 0.330029 1.000000
0.710164 0.324898 1.000000
1.000000 0.319508 1.000000
1.000000 0.317553 0.989892
0.000000 0.282005 1.000000
0.000432 0.305856 1.000000
0.005087 0.434335 1.000000
0.093074 1.000000 1.000000
0.294822 1.000000 1.000000
0.741151 1.000000 1.000000
1.000000 1.000000 1.000000
1.000000 1.000000 1.000000
0.000000 0.416202 1.000000
0.000391 0.500315 1.000000
0.004876 1.000000 1.000000
0.091705 1.000000 1.000000
0.285228 1.000000 1.000000
0.657297 1.000000 1.000000
1.000000 1.000000 1.000000
1.000000 1.000000 1.000000
0.000000 1.000000 1.000000
0.000086 1.000000 1.000000
0.004501 1.000000 1.000000
0.095087 1.000000 1.000000
0.278370 1.000000 1.000000
0.593607 1.000000 1.000000
1.000000 1.000000 1.000000
1.000000 1.000000 1.000000
0.000000 0.000000 0.536548
0.000889 0.000000 0.577726
0.011269 0.000000 1.000000
0.086066 0.000000 1.000000
0.223887 0.000000 1.000000
0.368511 0.000000 1.000000
0.833077 0.000000 1.000000
1.000000 0.000000 1.000000
0.000000 0.001180 0.814962
0.000508 0.000954 0.929484
0.013606 0.001297 1.000000
0.100715 0.001067 1.000000
0.252326 0.000701 1.000000
0.430085 0.000676 1.000000
1.000000 0.000435 1.000000
1.000000 0.000197 1.000000
0.000000 0.016812 1.000000
0.000379 0.017260 1.000000
0.007058 0.024578 1.000000
0.104943 0.026068 1.000000
0.275353 0.024972 1.000000
0.518090 0.023718 1.000000
1.000000 0.024289 1.000000
1.000000 0.025524 1.000000
0.000000 0.078288 1.000000
0.000250 0.082971 1.000000
0.005112 0.116564 1.000000
0.099321 0.132692 1.000000
0.288910 0.138624 1.000000
0.624697 0.138239 1.000000
1.000000 0.138075 1.000000
1.000000 0.139513 1.000000
0.000000 0.182382 1.000000
0.000173 0.195429 1.000000
0.004649 0.257331 1.000000
0.092919 0.316479 1.000000
0.287280 0.321379 1.000000
0.686997 0.326927 1.000000
1.000000 0.321391 1.000000
1.000000 0.319797 1.000000
0.000000 0.276110 1.000000
0.000138 0.300459 1.000000
0.004597 0.419792 1.000000
0.087775 0.943418 1.000000
0.288470 1.000000 1.000000
0.637792 1.000000 1.000000
1.000000 1.000000 1.000000
1.000000 0.904048 1.000000
0.000000 0.404989 1.000000
0.000107 0.483490 1.000000
0.004663 1.000000 1.000000
0.088689 1.000000 1.000000
0.281550 1.000000 1.000000
0.579551 1.000000 1.000000
1.000000 1.000000 1.000000
1.000000 1.000000 1.000000
0.000000 1.000000 1.000000
0.000079 1.000000 1.000000
0.004475 1.000000 1.000000
0.091721 1.000000 1.000000
0.274698 1.000000 1.000000
0.541072 1.000000 1.000000
1.000000 1.000000 1.000000
1.000000 1.000000 1.000000
0.000000 0.000000 1.000000
0.000597 0.000000 1.000000
0.013416 0.000000 1.000000
0.094015 0.000000 1.000000
0.238094 0.000000 1.000000
0.397397 0.000000 1.000000
1.000000 0.000000 1.000000
1.000000 0.000000 1.000000
0.000000 0.001252 1.000000
0.000225 0.001362 1.000000
0.011941 0.002822 1.000000
0.101782 0.002856 1.000000
0.262163 0.001451 1.000000
0.469079 0.000475 1.000000
1.000000 0.000949 1.000000
1.000000 0.001827 1.000000
0.000000 0.018838 1.000000
0.000097 0.019767 1.000000
0.005695 0.028816 1.000000
0.101331 0.031275 1.000000
0.272567 0.031072 1.000000
0.511650 0.030078 1.000000
1.000000 0.032454 1.000000
1.000000 0.033797 1.000000
0.000000 0.078909 1.000000
0.000000 0.084607 1.000000
0.004657 0.119243 1.000000
0.095018 0.136845 1.000000
0.281767 0.142984 1.000000
0.584785 0.142635 1.000000
1.000000 0.146703 1.000000
1.000000 0.147993 1.000000
0.000000 0.178952 1.000000
0.000000 0.193207 1.000000
0.004243 0.254423 1.000000
0.088666 0.311389 1.000000
0.278755 0.315717 1.000000
0.614182 0.321631 1.000000
1.000000 0.324127 1.000000
1.000000 0.322555 1.000000
0.000000 0.270694 1.000000
0.000000 0.295872 1.000000
0.004211 0.409134 1.000000
0.083822 0.719380 1.000000
0.279687 1.000000 1.000000
0.580745 1.000000 1.000000
1.000000 1.000000 1.000000
1.000000 0.887523 1.000000
0.000000 0.394712 1.000000
0.000000 0.470871 1.000000
0.004258 1.000000 1.000000
0.085971 1.000000 1.000000
0.277827 1.000000 1.000000
0.566894 1.000000 1.000000
1.000000 1.000000 1.000000
1.000000 1.000000 1.000000
0.000000 1.000000 1.000000
0.000000 1.000000 1.000000
0.004371 1.000000 1.000000
0.090565 1.000000 1.000000
0.272641 1.000000 1.000000
0.534257 1.000000 1.000000
1.000000 1.000000 1.000000
1.000000 1.000000 1.000000
