WanderingClouds/Assets/WanderingCloud/GameArt/DraftClement/YS_Cube.CUBE
#Created by: Adobe Photoshop Export Color Lookup Plugin
TITLE "YS_ModifCube.psd"
#LUT size
LUT_3D_SIZE 32
#data domain
DOMAIN_MIN 0.0 0.0 0.0
DOMAIN_MAX 1.0 1.0 1.0
#LUT data points
0.000000 0.000464 0.000000
0.000678 0.000400 0.000000
0.001509 0.000323 0.000000
0.004675 0.000071 0.000000
0.008508 0.000000 0.000000
0.013135 0.000000 0.000000
0.019460 0.000000 0.000000
0.029487 0.000000 0.000000
0.043679 0.000000 0.000000
0.065290 0.000000 0.000000
0.095210 0.000000 0.000000
0.137537 0.000000 0.000000
0.190315 0.000000 0.000000
0.251607 0.000000 0.000000
0.318112 0.000000 0.000000
0.386557 0.000000 0.000000
0.453656 0.000000 0.000000
0.517960 0.000000 0.000000
0.578552 0.000000 0.000000
0.636258 0.000000 0.000000
0.690254 0.000000 0.000000
0.742374 0.000000 0.000000
0.791004 0.000000 0.000000
0.838392 0.000000 0.000000
0.883031 0.000000 0.000000
0.926986 0.000000 0.000000
0.968379 0.000000 0.000000
1.000000 0.000000 0.000000
1.000000 0.000000 0.000000
1.000000 0.000000 0.000000
1.000000 0.000000 0.000000
1.000000 0.000000 0.000000
0.000000 0.001180 0.000000
0.000677 0.001179 0.000000
0.001507 0.001100 0.000000
0.004674 0.000847 0.000000
0.008515 0.000601 0.000000
0.013201 0.000394 0.000000
0.019571 0.000188 0.000000
0.029772 0.000000 0.000000
0.044161 0.000000 0.000000
0.066325 0.000000 0.000000
0.096701 0.000000 0.000000
0.139827 0.000000 0.000000
0.193358 0.000000 0.000000
0.255522 0.000000 0.000000
0.322609 0.000000 0.000000
0.391585 0.000000 0.000000
0.459016 0.000000 0.000000
0.523583 0.000000 0.000000
0.584226 0.000000 0.000000
0.641976 0.000000 0.000000
0.695734 0.000000 0.000000
0.747743 0.000000 0.000000
0.796236 0.000000 0.000000
0.843586 0.000000 0.000000
0.888258 0.000000 0.000000
0.932235 0.000000 0.000000
0.973394 0.000000 0.000000
1.000000 0.000000 0.000000
1.000000 0.000000 0.000000
1.000000 0.000000 0.000000
1.000000 0.000000 0.000000
1.000000 0.000000 0.000000
0.000000 0.002064 0.000000
0.000601 0.002063 0.000000
0.001507 0.002065 0.000000
0.004674 0.001805 0.000000
0.008530 0.001555 0.000000
0.013230 0.001345 0.000000
0.019716 0.001136 0.000000
0.030003 0.000907 0.000000
0.044733 0.000644 0.000000
0.067234 0.000272 0.000000
0.098516 0.000000 0.000000
0.142360 0.000000 0.000000
0.197055 0.000000 0.000000
0.260072 0.000000 0.000000
0.328117 0.000000 0.000000
0.397688 0.000000 0.000000
0.465617 0.000000 0.000000
0.530501 0.000000 0.000000
0.591289 0.000000 0.000000
0.649074 0.000000 0.000000
0.702824 0.000000 0.000000
0.754581 0.000000 0.000000
0.802950 0.000000 0.000000
0.850155 0.000000 0.000000
0.894781 0.000000 0.000000
0.938783 0.000000 0.000000
0.979955 0.000000 0.000000
1.000000 0.000000 0.000000
1.000000 0.000000 0.000000
1.000000 0.000000 0.000000
1.000000 0.000000 0.000000
1.000000 0.000000 0.000000
0.000000 0.005523 0.000000
0.000321 0.005533 0.000000
0.001222 0.005536 0.000000
0.004679 0.005579 0.000000
0.008558 0.005285 0.000000
0.013548 0.005064 0.000000
0.020212 0.004825 0.000000
0.031380 0.004618 0.000000
0.046878 0.004318 0.000000
0.071781 0.003916 0.000000
0.105130 0.003320 0.000000
0.153276 0.002444 0.000000
0.211326 0.001849 0.000000
0.278541 0.001383 0.000000
0.349096 0.001000 0.000000
0.421044 0.000646 0.000000
0.490302 0.000330 0.000000
0.556165 0.000044 0.000000
0.616989 0.000000 0.000000
0.674632 0.000000 0.000000
0.728385 0.000000 0.000000
0.780160 0.000000 0.000000
0.828446 0.000000 0.000000
0.875652 0.000000 0.000000
0.920193 0.000000 0.000000
0.964184 0.000000 0.000000
1.000000 0.000000 0.000000
1.000000 0.000000 0.000000
1.000000 0.000000 0.000000
1.000000 0.000000 0.000000
1.000000 0.000000 0.000000
1.000000 0.000000 0.000000
0.000000 0.009820 0.000000
0.000057 0.009828 0.000000
0.000938 0.009862 0.000000
0.004344 0.009931 0.000000
0.008582 0.010030 0.000000
0.013614 0.009748 0.000000
0.020725 0.009506 0.000000
0.032197 0.009243 0.000000
0.049020 0.008949 0.000000
0.075126 0.008424 0.000000
0.111751 0.007705 0.000000
0.162778 0.006494 0.000000
0.225963 0.005440 0.000000
0.296387 0.004853 0.000000
0.370825 0.004265 0.000000
0.444890 0.003861 0.000000
0.515960 0.003506 0.000000
0.582780 0.003192 0.000000
0.644196 0.002917 0.000000
0.701610 0.002670 0.000000
0.755221 0.002445 0.000000
0.806847 0.002234 0.000000
0.855127 0.002040 0.000000
0.902146 0.001854 0.000000
0.946702 0.001679 0.000000
0.990526 0.001509 0.000000
1.000000 0.001349 0.000000
1.000000 0.001193 0.000000
1.000000 0.001051 0.000000
1.000000 0.000911 0.000000
1.000000 0.000774 0.000000
1.000000 0.000638 0.000000
0.000000 0.014884 0.000000
0.000000 0.014883 0.000000
0.000696 0.014927 0.000000
0.003976 0.015239 0.000000
0.008099 0.015385 0.000000
0.013863 0.015894 0.000000
0.021109 0.015592 0.000000
0.033742 0.015648 0.000000
0.051347 0.015290 0.000000
0.080308 0.014894 0.000000
0.119114 0.013958 0.000000
0.174910 0.012558 0.000000
0.241879 0.010730 0.000000
0.318387 0.009038 0.000000
0.395643 0.007997 0.000000
0.472720 0.006930 0.000000
0.545084 0.006503 0.000000
0.612713 0.006131 0.000000
0.674592 0.005808 0.000000
0.732170 0.005520 0.000000
0.786235 0.005258 0.000000
0.838199 0.005013 0.000000
0.886721 0.004790 0.000000
0.933900 0.004576 0.000000
0.978730 0.004377 0.000000
1.000000 0.004184 0.000000
1.000000 0.004004 0.000000
1.000000 0.003828 0.000000
1.000000 0.003669 0.000000
1.000000 0.003515 0.000000
1.000000 0.003365 0.000000
1.000000 0.003216 0.000000
0.000000 0.021651 0.000000
0.000000 0.021641 0.000000
0.000447 0.021718 0.000000
0.003691 0.022166 0.000000
0.007621 0.022712 0.000000
0.013201 0.023441 0.000000
0.021600 0.024265 0.000000
0.034510 0.024382 0.000000
0.053928 0.024440 0.000000
0.084199 0.023956 0.000000
0.127030 0.023190 0.000000
0.185886 0.021285 0.000000
0.258167 0.019264 0.000000
0.338363 0.016318 0.000000
0.421146 0.014006 0.000000
0.500567 0.012164 0.000000
0.575641 0.010913 0.000000
0.644137 0.010429 0.000000
0.706683 0.009901 0.000000
0.764459 0.009532 0.000000
0.818588 0.009199 0.000000
0.870846 0.008887 0.000000
0.919501 0.008678 0.000000
0.966795 0.008407 0.000000
1.000000 0.008272 0.000000
1.000000 0.008025 0.000000
1.000000 0.007868 0.000000
1.000000 0.007645 0.000000
1.000000 0.007445 0.000000
1.000000 0.007249 0.000000
1.000000 0.007061 0.000000
1.000000 0.006876 0.000000
0.000000 0.031390 0.000000
0.000000 0.031393 0.000000
0.000177 0.031503 0.000000
0.003358 0.032450 0.000000
0.007193 0.033230 0.000000
0.012489 0.035201 0.000000
0.020626 0.036459 0.000000
0.036141 0.038477 0.000000
0.056337 0.038602 0.000000
0.090293 0.038568 0.000000
0.135619 0.037660 0.000000
0.200570 0.036122 0.000000
0.276438 0.033584 0.000000
0.362160 0.030920 0.000000
0.447818 0.027313 0.000000
0.530875 0.024601 0.000000
0.608104 0.022111 0.000000
0.679312 0.020454 0.000000
0.742853 0.019276 0.000000
0.801545 0.018175 0.000000
0.855956 0.017669 0.000000
0.908341 0.017195 0.000000
0.956995 0.017183 0.000000
1.000000 0.017052 0.000000
1.000000 0.017403 0.000000
1.000000 0.017418 0.000000
1.000000 0.017551 0.000000
1.000000 0.017398 0.000000
1.000000 0.017066 0.000000
1.000000 0.016743 0.000000
1.000000 0.016433 0.000000
1.000000 0.016127 0.000000
0.000000 0.044666 0.000000
0.000000 0.044681 0.000000
0.000000 0.044900 0.000000
0.003052 0.046229 0.000000
0.006640 0.047852 0.000000
0.011559 0.050645 0.000000
0.019644 0.053621 0.000000
0.035136 0.056760 0.000000
0.059282 0.059389 0.000000
0.094648 0.059403 0.000000
0.145175 0.059170 0.000000
0.213495 0.057266 0.000000
0.295880 0.055268 0.000000
0.384903 0.052039 0.000000
0.475375 0.048879 0.000000
0.560782 0.044814 0.000000
0.640788 0.041541 0.000000
0.713746 0.038224 0.000000
0.779104 0.035807 0.000000
0.838498 0.033540 0.000000
0.893356 0.032368 0.000000
0.945816 0.031629 0.000000
0.994409 0.031599 0.000000
1.000000 0.031875 0.000000
1.000000 0.032583 0.000000
1.000000 0.033518 0.000000
1.000000 0.033967 0.000000
1.000000 0.034354 0.000000
1.000000 0.033903 0.000000
1.000000 0.033366 0.000000
1.000000 0.032851 0.000000
1.000000 0.032343 0.000000
0.000000 0.063920 0.000000
0.000000 0.064060 0.000000
0.000000 0.064385 0.000000
0.002718 0.066643 0.000000
0.006229 0.068897 0.000000
0.009875 0.074418 0.000000
0.016992 0.078656 0.000000
0.034373 0.084393 0.000000
0.059231 0.089046 0.000000
0.101482 0.092599 0.000000
0.154688 0.092407 0.000000
0.230117 0.091640 0.000000
0.316067 0.089117 0.000000
0.411454 0.086515 0.000000
0.504542 0.082409 0.000000
0.593302 0.078427 0.000000
0.674765 0.074037 0.000000
0.749226 0.070540 0.000000
0.815272 0.067262 0.000000
0.875254 0.064744 0.000000
0.930232 0.063049 0.000000
0.982623 0.062184 0.000000
1.000000 0.062100 0.000000
1.000000 0.062516 0.000000
1.000000 0.063473 0.000000
1.000000 0.064805 0.000000
1.000000 0.065441 0.000000
1.000000 0.066000 0.000000
1.000000 0.065271 0.000000
1.000000 0.064397 0.000000
1.000000 0.063555 0.000000
1.000000 0.062722 0.000000
0.000000 0.089153 0.000000
0.000000 0.089402 0.000000
0.000000 0.090012 0.000000
0.002389 0.093149 0.000000
0.005808 0.096791 0.000000
0.009318 0.104150 0.000000
0.014948 0.112306 0.000000
0.030803 0.120278 0.000000
0.058791 0.128613 0.000000
0.103364 0.136042 0.000000
0.165036 0.139551 0.000000
0.243639 0.138693 0.000000
0.336909 0.137789 0.000000
0.435360 0.134630 0.000000
0.533910 0.131304 0.000000
0.624615 0.126402 0.000000
0.708687 0.122269 0.000000
0.784135 0.118043 0.000000
0.851132 0.114695 0.000000
0.911512 0.111765 0.000000
0.966760 0.110190 0.000000
1.000000 0.109222 0.000000
1.000000 0.109270 0.000000
1.000000 0.109848 0.000000
1.000000 0.111117 0.000000
1.000000 0.112796 0.000000
1.000000 0.113569 0.000000
1.000000 0.114258 0.000000
1.000000 0.113140 0.000000
1.000000 0.111840 0.000000
1.000000 0.110797 0.000000
1.000000 0.109545 0.000000
0.000000 0.122131 0.000000
0.000000 0.122660 0.000000
0.000000 0.123466 0.000000
0.002057 0.128323 0.000000
0.005406 0.133237 0.000000
0.008694 0.144047 0.000000
0.014069 0.154717 0.000000
0.028550 0.169491 0.000000
0.054938 0.180831 0.000000
0.104852 0.193970 0.000000
0.172189 0.203778 0.000000
0.259040 0.206490 0.000000
0.355227 0.205532 0.000000
0.460518 0.204604 0.000000
0.561307 0.200522 0.000000
0.655941 0.196211 0.000000
0.741262 0.190938 0.000000
0.818507 0.186539 0.000000
0.885977 0.182048 0.000000
0.946792 0.178359 0.000000
1.000000 0.176277 0.000000
1.000000 0.175165 0.000000
1.000000 0.175100 0.000000
1.000000 0.175698 0.000000
1.000000 0.177174 0.000000
1.000000 0.179150 0.000000
1.000000 0.180049 0.000000
1.000000 0.180840 0.000000
1.000000 0.179285 0.000000
1.000000 0.177476 0.000000
1.000000 0.176624 0.000000
1.000000 0.175229 0.000000
0.000000 0.162002 0.000000
0.000000 0.162864 0.000000
0.000000 0.164050 0.000000
0.001737 0.170537 0.000000
0.005015 0.177799 0.000000
0.008208 0.191612 0.000000
0.012934 0.207083 0.000000
0.026059 0.225942 0.000000
0.051794 0.244696 0.000000
0.101227 0.260878 0.000000
0.175756 0.276763 0.000000
0.269753 0.286446 0.000000
0.373932 0.289340 0.000000
0.481602 0.288490 0.000000
0.588151 0.286795 0.000000
0.684373 0.281947 0.000000
0.772661 0.277480 0.000000
0.850716 0.272450 0.000000
0.919313 0.267907 0.000000
0.980340 0.263452 0.000000
1.000000 0.260967 0.000000
1.000000 0.259709 0.000000
1.000000 0.259688 0.000000
1.000000 0.260274 0.000000
1.000000 0.261711 0.000000
1.000000 0.263821 0.000000
1.000000 0.264488 0.000000
1.000000 0.265260 0.000000
1.000000 0.263579 0.000000
1.000000 0.261303 0.000000
1.000000 0.260636 0.000000
1.000000 0.259610 0.000000
0.000000 0.207949 0.000000
0.000000 0.209177 0.000000
0.000000 0.210703 0.000000
0.001420 0.219634 0.000000
0.004641 0.228759 0.000000
0.007735 0.246915 0.000000
0.012310 0.265516 0.000000
0.022722 0.292445 0.000000
0.045271 0.315175 0.000000
0.099859 0.337810 0.000000
0.175877 0.356427 0.000000
0.278539 0.374185 0.000000
0.388904 0.382154 0.000000
0.503152 0.385177 0.000000
0.611354 0.383423 0.000000
0.711682 0.380537 0.000000
0.800881 0.375579 0.000000
0.880858 0.371003 0.000000
0.949775 0.365831 0.000000
1.000000 0.361034 0.000000
1.000000 0.358067 0.000000
1.000000 0.356387 0.000000
1.000000 0.356294 0.000000
1.000000 0.356833 0.000000
1.000000 0.358133 0.000000
1.000000 0.359991 0.000000
1.000000 0.360327 0.000000
1.000000 0.360688 0.000000
1.000000 0.359205 0.000000
1.000000 0.357000 0.000000
1.000000 0.356909 0.000000
1.000000 0.356243 0.000000
0.000000 0.257955 0.000000
0.000000 0.259608 0.000000
0.000000 0.261663 0.000000
0.001125 0.272416 0.000000
0.004291 0.284222 0.000000
0.007307 0.305340 0.000000
0.011350 0.328731 0.000000
0.020472 0.359742 0.000000
0.040552 0.390126 0.000000
0.093272 0.415898 0.000000
0.176316 0.440702 0.000000
0.279815 0.460649 0.000000
0.401441 0.479109 0.000000
0.518773 0.484195 0.000000
0.632154 0.486114 0.000000
0.733510 0.483145 0.000000
0.825794 0.480154 0.000000
0.906299 0.475305 0.000000
0.976617 0.470578 0.000000
1.000000 0.465362 0.000000
1.000000 0.462253 0.000000
1.000000 0.460306 0.000000
1.000000 0.459488 0.000000
1.000000 0.460012 0.000000
1.000000 0.460422 0.000000
1.000000 0.462067 0.000000
1.000000 0.461788 0.000000
1.000000 0.461703 0.000000
1.000000 0.460699 0.000000
1.000000 0.458771 0.000000
1.000000 0.458705 0.000000
1.000000 0.458705 0.000000
0.000000 0.309757 0.000000
0.000000 0.311926 0.000000
0.000000 0.314473 0.000000
0.000849 0.327463 0.000000
0.003973 0.341141 0.000000
0.006913 0.366008 0.000000
0.010843 0.392279 0.000000
0.017653 0.429568 0.000000
0.034684 0.463575 0.000000
0.089983 0.495368 0.000000
0.174163 0.522859 0.000000
0.281755 0.548313 0.000000
0.404561 0.568549 0.000000
0.532867 0.584618 0.000000
0.647406 0.586890 0.000000
0.752147 0.587121 0.000000
0.844952 0.584072 0.000000
0.927564 0.580992 0.000000
0.998107 0.576033 0.000000
1.000000 0.571140 0.000000
1.000000 0.567803 0.000000
1.000000 0.565712 0.000000
1.000000 0.564454 0.000000
1.000000 0.563919 0.000000
1.000000 0.563611 0.000000
1.000000 0.563796 0.000000
1.000000 0.563059 0.000000
1.000000 0.562274 0.000000
1.000000 0.561996 0.000000
1.000000 0.560900 0.000000
1.000000 0.560829 0.000000
1.000000 0.560829 0.000000
0.000000 0.361037 0.000000
0.000000 0.363484 0.000000
0.000000 0.366690 0.000000
0.000600 0.381566 0.000000
0.003687 0.397426 0.000000
0.006568 0.424504 0.000000
0.010145 0.454466 0.000000
0.016121 0.494915 0.000000
0.030976 0.534279 0.000000
0.084038 0.568493 0.000000
0.172865 0.600865 0.000000
0.280668 0.627979 0.000000
0.407310 0.652756 0.000000
0.537809 0.671628 0.000000
0.660507 0.681716 0.000000
0.765835 0.682066 0.000000
0.861052 0.681514 0.000000
0.943940 0.678450 0.000000
1.000000 0.675029 0.000000
1.000000 0.670018 0.000000
1.000000 0.666647 0.000000
1.000000 0.664457 0.000000
1.000000 0.662667 0.000000
1.000000 0.661708 0.000000
1.000000 0.660399 0.000000
1.000000 0.659809 0.000000
1.000000 0.658640 0.000000
1.000000 0.657361 0.000000
1.000000 0.657114 0.000000
1.000000 0.656801 0.000000
1.000000 0.656790 0.000000
1.000000 0.656790 0.000000
0.000000 0.410737 0.000000
0.000000 0.413439 0.000000
0.000000 0.416951 0.000000
0.000373 0.433872 0.000000
0.003430 0.451601 0.000000
0.006258 0.480990 0.000000
0.009757 0.512964 0.000000
0.014474 0.557372 0.000000
0.027476 0.599352 0.000000
0.081193 0.637309 0.000000
0.170831 0.671628 0.000000
0.280591 0.701908 0.000000
0.407962 0.727945 0.000000
0.540780 0.750150 0.000000
0.668837 0.766129 0.000000
0.777372 0.769267 0.000000
0.872928 0.768814 0.000000
0.957367 0.767482 0.000000
1.000000 0.764065 0.000000
1.000000 0.760354 0.000000
1.000000 0.756840 0.000000
1.000000 0.754278 0.000000
1.000000 0.752252 0.000000
1.000000 0.750504 0.000000
1.000000 0.748829 0.000000
1.000000 0.747278 0.000000
1.000000 0.746075 0.000000
1.000000 0.744757 0.000000
1.000000 0.744627 0.000000
1.000000 0.744502 0.000000
1.000000 0.744491 0.000000
1.000000 0.744491 0.000000
0.000000 0.457816 0.000000
0.000000 0.461231 0.000000
0.000000 0.465138 0.000000
0.000166 0.483860 0.000000
0.003199 0.503389 0.000000
0.005984 0.534167 0.000000
0.009334 0.568184 0.000000
0.013731 0.614457 0.000000
0.025528 0.659377 0.000000
0.077546 0.698666 0.000000
0.169370 0.735823 0.000000
0.278998 0.767183 0.000000
0.408044 0.795535 0.000000
0.541066 0.818400 0.000000
0.670513 0.836703 0.000000
0.784596 0.845849 0.000000
0.881572 0.846782 0.000000
0.966127 0.845508 0.000000
1.000000 0.843338 0.000000
1.000000 0.839667 0.000000
1.000000 0.836635 0.000000
1.000000 0.833982 0.000000
1.000000 0.831641 0.000000
1.000000 0.829677 0.000000
1.000000 0.829264 0.000000
1.000000 0.827352 0.000000
1.000000 0.826508 0.000000
1.000000 0.825164 0.000000
1.000000 0.825032 0.000000
1.000000 0.825032 0.000000
1.000000 0.825032 0.000000
1.000000 0.825032 0.000000
0.000000 0.502900 0.000000
0.000000 0.506881 0.000000
0.000000 0.511541 0.000000
0.000000 0.531957 0.000000
0.002986 0.553262 0.000000
0.005734 0.585300 0.000000
0.009024 0.620531 0.000000
0.013027 0.668665 0.000000
0.024131 0.715005 0.000000
0.075880 0.755816 0.000000
0.167746 0.793949 0.000000
0.277851 0.827100 0.000000
0.407103 0.856265 0.000000
0.540837 0.880596 0.000000
0.670479 0.899360 0.000000
0.787402 0.912495 0.000000
0.887088 0.916367 0.000000
0.972499 0.916253 0.000000
1.000000 0.914144 0.000000
1.000000 0.911357 0.000000
1.000000 0.908296 0.000000
1.000000 0.905591 0.000000
1.000000 0.903188 0.000000
1.000000 0.900938 0.000000
1.000000 0.901031 0.000000
1.000000 0.901225 0.000000
1.000000 0.900638 0.000000
1.000000 0.900047 0.000000
1.000000 0.899913 0.000000
1.000000 0.899913 0.000000
1.000000 0.899913 0.000000
1.000000 0.899913 0.000000
0.000000 0.547186 0.000000
0.000000 0.551810 0.000000
0.000000 0.557172 0.000000
0.000000 0.579760 0.000000
0.002784 0.602563 0.000000
0.005496 0.635867 0.000000
0.008901 0.671999 0.000000
0.013379 0.720819 0.000000
0.024139 0.768203 0.000000
0.075010 0.809353 0.000000
0.167391 0.848434 0.000000
0.277026 0.881983 0.000000
0.406495 0.912269 0.000000
0.540004 0.936906 0.000000
0.670088 0.956581 0.000000
0.787046 0.969883 0.000000
0.891636 0.979481 0.000000
0.977111 0.979449 0.000000
1.000000 0.978330 0.000000
1.000000 0.975593 0.000000
1.000000 0.972830 0.000000
1.000000 0.970113 0.000000
1.000000 0.970113 0.000000
1.000000 0.967814 0.000000
1.000000 0.967658 0.000000
1.000000 0.968364 0.000000
1.000000 0.968206 0.000000
1.000000 0.967880 0.000000
1.000000 0.967847 0.000000
1.000000 0.967847 0.000000
1.000000 0.967847 0.000000
1.000000 0.967847 0.000000
0.000000 0.591390 0.000000
0.000000 0.596428 0.000000
0.000000 0.602462 0.000000
0.000000 0.626770 0.000000
0.002589 0.651738 0.000000
0.005267 0.686175 0.000000
0.008617 0.723450 0.000000
0.013637 0.772715 0.000000
0.025326 0.820432 0.000000
0.076323 0.861641 0.000000
0.168139 0.900801 0.000000
0.277295 0.934741 0.000000
0.406401 0.965243 0.000000
0.539445 0.990414 0.000000
0.669324 1.000000 0.000000
0.786465 1.000000 0.000000
0.891950 1.000000 0.000000
0.981164 1.000000 0.000000
1.000000 1.000000 0.000000
1.000000 1.000000 0.000000
1.000000 1.000000 0.000000
1.000000 1.000000 0.000000
1.000000 1.000000 0.000000
1.000000 1.000000 0.000000
1.000000 1.000000 0.000000
1.000000 1.000000 0.000000
1.000000 1.000000 0.000000
1.000000 1.000000 0.000000
1.000000 1.000000 0.000000
1.000000 1.000000 0.000000
1.000000 1.000000 0.000000
1.000000 1.000000 0.000000
0.000000 0.636009 0.000000
0.000000 0.641962 0.000000
0.000000 0.648633 0.000000
0.000000 0.676045 0.000000
0.002394 0.702345 0.000000
0.005042 0.737382 0.000000
0.008629 0.775097 0.000000
0.014708 0.823906 0.000000
0.027073 0.871344 0.000000
0.078461 0.911870 0.000000
0.169982 0.950755 0.000000
0.278626 0.984445 0.000000
0.406742 1.000000 0.000000
0.539023 1.000000 0.000000
0.668266 1.000000 0.000000
0.785122 1.000000 0.000000
0.890648 1.000000 0.000000
0.983461 1.000000 0.000000
1.000000 1.000000 0.000000
1.000000 1.000000 0.000000
1.000000 1.000000 0.000000
1.000000 1.000000 0.000000
1.000000 1.000000 0.000000
1.000000 1.000000 0.000000
1.000000 1.000000 0.000000
1.000000 1.000000 0.000000
1.000000 1.000000 0.000000
1.000000 1.000000 0.000000
1.000000 1.000000 0.000000
1.000000 1.000000 0.000000
1.000000 1.000000 0.000000
1.000000 1.000000 0.000000
0.000000 0.681252 0.000000
0.000000 0.687652 0.000000
0.000000 0.695269 0.000000
0.000000 0.724614 0.000000
0.002200 0.754004 0.000000
0.004820 0.789540 0.000000
0.008351 0.827705 0.000000
0.015348 0.875961 0.000000
0.029833 0.922628 0.000000
0.082214 0.962139 0.000000
0.173308 1.000000 0.000000
0.281234 1.000000 0.000000
0.408489 1.000000 0.000000
0.539272 1.000000 0.000000
0.667678 1.000000 0.000000
0.783801 1.000000 0.000000
0.889051 1.000000 0.000000
0.981833 1.000000 0.000000
1.000000 1.000000 0.000000
1.000000 1.000000 0.000000
1.000000 1.000000 0.000000
1.000000 1.000000 0.000000
1.000000 1.000000 0.000000
1.000000 1.000000 0.000000
1.000000 1.000000 0.000000
1.000000 1.000000 0.000000
1.000000 1.000000 0.000000
1.000000 1.000000 0.000000
1.000000 1.000000 0.000000
1.000000 1.000000 0.000000
1.000000 1.000000 0.000000
1.000000 1.000000 0.000000
0.000000 0.729975 0.000000
0.000000 0.737849 0.000000
0.000000 0.746126 0.000000
0.000000 0.778886 0.000000
0.001996 0.809601 0.000000
0.004587 0.845364 0.000000
0.008654 0.882947 0.000000
0.018571 0.928697 0.000000
0.034613 0.974276 0.000000
0.086964 1.000000 0.000000
0.178319 1.000000 0.000000
0.285259 1.000000 0.000000
0.410820 1.000000 0.000000
0.540047 1.000000 0.000000
0.667099 1.000000 0.000000
0.782609 1.000000 0.000000
0.887275 1.000000 0.000000
0.979876 1.000000 0.000000
1.000000 1.000000 0.000000
1.000000 1.000000 0.000000
1.000000 1.000000 0.000000
1.000000 1.000000 0.000000
1.000000 1.000000 0.000000
1.000000 1.000000 0.000000
1.000000 1.000000 0.000000
1.000000 1.000000 0.000000
1.000000 1.000000 0.000000
1.000000 1.000000 0.000000
1.000000 1.000000 0.000000
1.000000 1.000000 0.000000
1.000000 1.000000 0.000000
1.000000 1.000000 0.000000
0.000000 0.780226 0.000000
0.000000 0.788613 0.000000
0.000000 0.798387 0.000000
0.000000 0.832777 0.000000
0.001789 0.866831 0.000000
0.004354 0.902792 0.000000
0.008354 0.940413 0.000000
0.020271 0.984274 0.000000
0.042489 1.000000 0.000000
0.096922 1.000000 0.000000
0.185782 1.000000 0.000000
0.291783 1.000000 0.000000
0.415452 1.000000 0.000000
0.542289 1.000000 0.000000
0.667560 1.000000 0.000000
0.781838 1.000000 0.000000
0.885887 1.000000 0.000000
0.977986 1.000000 0.000000
1.000000 1.000000 0.000000
1.000000 1.000000 0.000000
1.000000 1.000000 0.000000
1.000000 1.000000 0.000000
1.000000 1.000000 0.000000
1.000000 1.000000 0.000000
1.000000 1.000000 0.000000
1.000000 1.000000 0.000000
1.000000 1.000000 0.000000
1.000000 1.000000 0.000000
1.000000 1.000000 0.000000
1.000000 1.000000 0.000000
1.000000 1.000000 0.000000
1.000000 1.000000 0.000000
0.000000 0.826790 0.000000
0.000000 0.836269 0.000000
0.000000 0.846625 0.000000
0.000000 0.883631 0.000000
0.001605 0.918572 0.000000
0.004147 0.954498 0.000000
0.008393 0.991517 0.000000
0.022193 1.000000 0.000000
0.046744 1.000000 0.000000
0.101861 1.000000 0.000000
0.189792 1.000000 0.000000
0.295061 1.000000 0.000000
0.417011 1.000000 0.000000
0.542502 1.000000 0.000000
0.666309 1.000000 0.000000
0.779951 1.000000 0.000000
0.883498 1.000000 0.000000
0.975479 1.000000 0.000000
1.000000 1.000000 0.000000
1.000000 1.000000 0.000000
1.000000 1.000000 0.000000
1.000000 1.000000 0.000000
1.000000 1.000000 0.000000
1.000000 1.000000 0.000000
1.000000 1.000000 0.000000
1.000000 1.000000 0.000000
1.000000 1.000000 0.000000
1.000000 1.000000 0.000000
1.000000 1.000000 0.000000
1.000000 1.000000 0.000000
1.000000 1.000000 0.000000
1.000000 1.000000 0.000000
0.000000 0.872909 0.000000
0.000000 0.882653 0.000000
0.000000 0.894096 0.000000
0.000000 0.931995 0.000000
0.001425 0.969418 0.000000
0.003947 1.000000 0.000000
0.008134 1.000000 0.000000
0.022767 1.000000 0.000000
0.051225 1.000000 0.000000
0.107630 1.000000 0.000000
0.194246 1.000000 0.000000
0.298962 1.000000 0.000000
0.419373 1.000000 0.000000
0.543265 1.000000 0.000000
0.665519 1.000000 0.000000
0.778196 1.000000 0.000000
0.881109 1.000000 0.000000
0.972859 1.000000 0.000000
